;FLAVOR:Marlin
;TIME:6759
;Filament used: 2.56658m
;Layer height: 0.12
;MINX:114
;MINY:114
;MINZ:0.12
;MAXX:185.98
;MAXY:185.98
;MAXZ:12
;Generated with Cura_SteamEngine 5.2.1
M140 S50
M105
M190 S50
M104 S200
M105
M109 S200
M82 ;absolute extrusion mode
M201 X500.00 Y500.00 Z100.00 E5000.00 ;Setup machine max acceleration
M203 X500.00 Y500.00 Z10.00 E50.00 ;Setup machine max feedrate
M204 P500.00 R1000.00 T500.00 ;Setup Print/Retract/Travel acceleration
M205 X8.00 Y8.00 Z0.40 E5.00 ;Setup Jerk
M220 S100 ;Reset Feedrate
M221 S100 ;Reset Flowrate

G28 ;Home

G92 E0 ;Reset Extruder
G1 Z2.0 F3000 ;Move Z Axis up
G1 X10.1 Y20 Z0.28 F5000.0 ;Move to start position
G1 X10.1 Y200.0 Z0.28 F1500.0 E15 ;Draw the first line
G1 X10.4 Y200.0 Z0.28 F5000.0 ;Move to side a little
G1 X10.4 Y20 Z0.28 F1500.0 E30 ;Draw the second line
G92 E0 ;Reset Extruder
G1 Z2.0 F3000 ;Move Z Axis up

G92 E0
G92 E0
G1 F2700 E-5
;LAYER_COUNT:100
;LAYER:0
M107
G0 F6000 X117.196 Y117.266 Z0.12
;TYPE:SKIRT
G1 F2700 E0
G1 F1200 X117.884 Y116.628 E0.01872
G1 X118.624 Y116.052 E0.03744
G1 X119.41 Y115.54 E0.05616
G1 X120.237 Y115.098 E0.07487
G1 X121.099 Y114.727 E0.0936
G1 X121.989 Y114.432 E0.11231
G1 X122.901 Y114.213 E0.13103
G1 X123.828 Y114.073 E0.14974
G1 X124.701 Y114.013 E0.1672
G1 X125.33 Y114 E0.17975
G1 X136.293 Y114 E0.39853
G1 X137.164 Y114.011 E0.41592
G1 X140.426 Y114.107 E0.48104
G1 X142.935 Y114.107 E0.53111
G1 X144.415 Y114.064 E0.56066
G1 X145.293 Y114.048 E0.57818
G1 X146.23 Y114.071 E0.59689
G1 X147.004 Y114.15 E0.61241
G1 X149.634 Y114.515 E0.6654
G1 X152.161 Y114.793 E0.71613
G1 X154.622 Y114.995 E0.76541
G1 X157.141 Y115.129 E0.81575
G1 X160.757 Y115.2 E0.88793
G1 X172.452 Y115.201 E1.12131
G1 X173.154 Y115.211 E1.13532
G1 X174.09 Y115.264 E1.15403
G1 X175.018 Y115.397 E1.17274
G1 X175.932 Y115.609 E1.19146
G1 X176.825 Y115.897 E1.21019
G1 X177.689 Y116.261 E1.2289
G1 X178.52 Y116.697 E1.24763
G1 X179.31 Y117.202 E1.26634
G1 X180.054 Y117.772 E1.28504
G1 X180.474 Y118.142 E1.29621
G1 X180.913 Y118.559 E1.30829
G1 X182.334 Y119.977 E1.34836
G1 X182.845 Y120.501 E1.36296
G1 X183.471 Y121.2 E1.38169
G1 X184.035 Y121.949 E1.4004
G1 X184.532 Y122.744 E1.41911
G1 X184.961 Y123.579 E1.43784
G1 X185.317 Y124.446 E1.45655
G1 X185.597 Y125.341 E1.47526
G1 X185.8 Y126.257 E1.49398
G1 X185.925 Y127.186 E1.51269
G1 X185.968 Y127.977 E1.5285
G1 X185.98 Y128.717 E1.54327
G1 X185.98 Y133.306 E1.63485
G1 X185.971 Y133.964 E1.64798
G1 X185.918 Y134.901 E1.66671
G1 X185.786 Y135.829 E1.68541
G1 X185.575 Y136.743 E1.70413
G1 X185.287 Y137.636 E1.72286
G1 X184.924 Y138.5 E1.74156
G1 X184.488 Y139.331 E1.76029
G1 X183.984 Y140.122 E1.779
G1 X183.414 Y140.866 E1.79771
G1 X182.898 Y141.442 E1.81314
G1 X182.54 Y141.814 E1.82344
G1 X181.153 Y143.202 E1.8626
G1 X180.668 Y143.674 E1.87611
G1 X179.968 Y144.299 E1.89483
G1 X179.218 Y144.862 E1.91355
G1 X178.576 Y145.271 E1.92874
G1 X176.474 Y146.508 E1.97741
G1 X174.38 Y147.818 E2.0267
G1 X172.251 Y149.234 E2.07773
G1 X170.233 Y150.661 E2.12705
G1 X168.196 Y152.19 E2.17788
G1 X166.225 Y153.757 E2.22813
G1 X164.308 Y155.374 E2.27818
G1 X162.432 Y157.048 E2.32835
G1 X160.587 Y158.79 E2.37899
G1 X158.818 Y160.559 E2.42892
G1 X157.082 Y162.395 E2.47934
G1 X155.417 Y164.26 E2.52923
G1 X153.781 Y166.198 E2.57985
G1 X152.207 Y168.174 E2.63026
G1 X150.724 Y170.148 E2.67953
G1 X149.248 Y172.236 E2.73056
G1 X147.858 Y174.323 E2.7806
G1 X146.516 Y176.465 E2.83104
G1 X145.279 Y178.563 E2.87965
G1 X144.769 Y179.35 E2.89836
G1 X144.193 Y180.09 E2.91707
G1 X143.649 Y180.686 E2.93318
G1 X142.21 Y182.15 E2.97414
G1 X141.496 Y182.849 E2.99408
G1 X140.797 Y183.474 E3.0128
G1 X140.048 Y184.037 E3.03149
G1 X139.253 Y184.535 E3.05022
G1 X138.418 Y184.963 E3.06894
G1 X137.55 Y185.318 E3.08765
G1 X136.655 Y185.598 E3.10637
G1 X135.739 Y185.801 E3.12509
G1 X134.81 Y185.925 E3.1438
G1 X134.024 Y185.968 E3.15951
G1 X133.284 Y185.98 E3.17427
G1 X128.679 Y185.98 E3.26617
G1 X128.011 Y185.97 E3.2795
G1 X127.075 Y185.916 E3.29821
G1 X126.147 Y185.782 E3.31693
G1 X125.233 Y185.57 E3.33565
G1 X124.341 Y185.281 E3.35436
G1 X123.477 Y184.917 E3.37307
G1 X122.647 Y184.48 E3.39179
G1 X121.857 Y183.975 E3.4105
G1 X121.113 Y183.404 E3.42922
G1 X120.413 Y182.765 E3.44813
G1 X118.918 Y181.276 E3.49024
G1 X118.327 Y180.67 E3.50713
G1 X117.703 Y179.971 E3.52583
G1 X117.14 Y179.221 E3.54455
G1 X116.643 Y178.425 E3.56327
G1 X116.215 Y177.591 E3.58198
G1 X115.86 Y176.723 E3.60069
G1 X115.581 Y175.827 E3.61942
G1 X115.379 Y174.911 E3.63814
G1 X115.255 Y173.982 E3.65684
G1 X115.213 Y173.205 E3.67237
G1 X115.2 Y172.413 E3.68818
G1 X115.2 Y160.75 E3.92093
G1 X115.163 Y158.141 E3.973
G1 X115.056 Y155.619 E4.02337
G1 X114.879 Y153.125 E4.07327
G1 X114.632 Y150.63 E4.1233
G1 X114.303 Y148.059 E4.17503
G1 X114.162 Y147.097 E4.19443
G1 X114.066 Y146.164 E4.21315
G1 X114.049 Y145.236 E4.23167
G1 X114.11 Y142.713 E4.28203
G1 X114.103 Y140.24 E4.33139
G1 X114.05 Y138.812 E4.3599
G1 X114.052 Y138.573 E4.36467
G1 X114 Y136.654 E4.40298
G1 X114.001 Y125.536 E4.62485
G1 X114.01 Y124.862 E4.63831
G1 X114.062 Y123.926 E4.65701
G1 X114.195 Y122.997 E4.67574
G1 X114.405 Y122.083 E4.69446
G1 X114.693 Y121.191 E4.71316
G1 X115.056 Y120.326 E4.73188
G1 X115.491 Y119.495 E4.7506
G1 X115.995 Y118.704 E4.76932
G1 X116.565 Y117.959 E4.78804
G1 X117.196 Y117.266 E4.80674
G0 F6000 X117.588 Y117.44
G1 F1200 X118.273 Y116.825 E4.82511
G1 X119.008 Y116.271 E4.84348
G1 X119.789 Y115.783 E4.86186
G1 X120.61 Y115.365 E4.88024
G1 X121.463 Y115.02 E4.89861
G1 X122.343 Y114.75 E4.91697
G1 X123.243 Y114.557 E4.93534
G1 X124.157 Y114.443 E4.95372
G1 X124.712 Y114.413 E4.96482
G1 X125.33 Y114.4 E4.97715
G1 X136.293 Y114.4 E5.19593
G1 X137.159 Y114.411 E5.21321
G1 X140.415 Y114.507 E5.27822
G1 X142.946 Y114.507 E5.32873
G1 X144.422 Y114.464 E5.3582
G1 X145.3 Y114.448 E5.37572
G1 X146.22 Y114.471 E5.39409
G1 X146.949 Y114.546 E5.40871
G1 X149.607 Y114.915 E5.46226
G1 X152.083 Y115.188 E5.51197
G1 X154.639 Y115.397 E5.56315
G1 X157.112 Y115.528 E5.61257
G1 X160.75 Y115.6 E5.68519
G1 X172.446 Y115.601 E5.91859
G1 X173.148 Y115.611 E5.9326
G1 X174.067 Y115.664 E5.95097
G1 X174.978 Y115.797 E5.96935
G1 X175.874 Y116.008 E5.98772
G1 X176.749 Y116.296 E6.0061
G1 X177.595 Y116.659 E6.02447
G1 X178.406 Y117.094 E6.04284
G1 X179.177 Y117.598 E6.06122
G1 X180.202 Y118.435 E6.08763
G1 X180.631 Y118.842 E6.09943
G1 X182.048 Y120.256 E6.13938
G1 X182.559 Y120.78 E6.15398
G1 X183.172 Y121.467 E6.17236
G1 X183.724 Y122.204 E6.19073
G1 X184.21 Y122.986 E6.2091
G1 X184.626 Y123.807 E6.22747
G1 X184.969 Y124.662 E6.24586
G1 X185.236 Y125.543 E6.26423
G1 X185.427 Y126.443 E6.28259
G1 X185.538 Y127.357 E6.30096
G1 X185.568 Y127.984 E6.31349
G1 X185.58 Y128.717 E6.32812
G1 X185.58 Y133.301 E6.4196
G1 X185.571 Y133.959 E6.43273
G1 X185.518 Y134.878 E6.4511
G1 X185.386 Y135.789 E6.46947
G1 X185.176 Y136.685 E6.48783
G1 X184.888 Y137.56 E6.50622
G1 X184.526 Y138.406 E6.52458
G1 X184.091 Y139.218 E6.54296
G1 X183.588 Y139.989 E6.56133
G1 X183.019 Y140.713 E6.57971
G1 X182.61 Y141.164 E6.59186
G1 X182.252 Y141.536 E6.60216
G1 X180.874 Y142.915 E6.64107
G1 X180.389 Y143.387 E6.65457
G1 X179.702 Y144 E6.67295
G1 X178.964 Y144.551 E6.69133
G1 X178.373 Y144.926 E6.7053
G1 X176.281 Y146.157 E6.75374
G1 X174.152 Y147.489 E6.80385
G1 X172.044 Y148.891 E6.85437
G1 X169.984 Y150.348 E6.90473
G1 X167.945 Y151.879 E6.95561
G1 X165.985 Y153.438 E7.00559
G1 X164.047 Y155.072 E7.05618
G1 X162.155 Y156.76 E7.10678
G1 X160.295 Y158.516 E7.15782
G1 X158.544 Y160.267 E7.20724
G1 X156.794 Y162.118 E7.25807
G1 X155.096 Y164.019 E7.30894
G1 X153.478 Y165.936 E7.359
G1 X151.908 Y167.909 E7.40932
G1 X150.378 Y169.945 E7.46014
G1 X148.921 Y172.005 E7.5105
G1 X147.529 Y174.094 E7.56059
G1 X146.166 Y176.272 E7.61186
G1 X144.934 Y178.36 E7.66025
G1 X144.433 Y179.132 E7.67861
G1 X143.866 Y179.857 E7.69698
G1 X143.364 Y180.406 E7.71182
G1 X141.925 Y181.87 E7.75279
G1 X141.217 Y182.562 E7.77255
G1 X140.53 Y183.175 E7.79092
G1 X139.793 Y183.727 E7.8093
G1 X139.011 Y184.212 E7.82766
G1 X138.189 Y184.628 E7.84605
G1 X137.335 Y184.97 E7.8644
G1 X136.454 Y185.238 E7.88278
G1 X135.553 Y185.427 E7.90115
G1 X134.639 Y185.538 E7.91953
G1 X134.017 Y185.568 E7.93195
G1 X133.284 Y185.58 E7.94658
G1 X128.685 Y185.58 E8.03836
G1 X128.017 Y185.57 E8.05169
G1 X127.098 Y185.516 E8.07006
G1 X126.187 Y185.383 E8.08844
G1 X125.291 Y185.171 E8.10681
G1 X124.417 Y184.882 E8.12518
G1 X123.571 Y184.519 E8.14355
G1 X122.76 Y184.083 E8.16193
G1 X121.99 Y183.579 E8.18029
G1 X121.266 Y183.01 E8.19867
G1 X120.696 Y182.481 E8.21419
G1 X119.084 Y180.874 E8.25961
G1 X118.614 Y180.391 E8.27306
G1 X118.001 Y179.704 E8.29144
G1 X117.45 Y178.967 E8.3098
G1 X116.966 Y178.184 E8.32817
G1 X116.551 Y177.362 E8.34654
G1 X116.208 Y176.507 E8.36493
G1 X115.942 Y175.626 E8.38329
G1 X115.753 Y174.725 E8.40167
G1 X115.642 Y173.811 E8.42004
G1 X115.613 Y173.198 E8.43229
G1 X115.6 Y172.413 E8.44795
G1 X115.6 Y160.744 E8.68082
G1 X115.563 Y158.119 E8.73321
G1 X115.456 Y155.61 E8.78333
G1 X115.278 Y153.09 E8.83374
G1 X115.029 Y150.576 E8.88416
G1 X114.7 Y148.007 E8.93584
G1 X114.558 Y147.039 E8.95537
G1 X114.464 Y146.123 E8.97374
G1 X114.449 Y145.246 E8.99125
G1 X114.511 Y142.722 E9.04163
G1 X114.503 Y140.224 E9.09148
G1 X114.45 Y138.797 E9.11998
G1 X114.451 Y138.585 E9.12421
G1 X114.404 Y136.962 E9.15661
G1 X114.401 Y125.541 E9.38453
G1 X114.41 Y124.867 E9.39798
G1 X114.462 Y123.948 E9.41635
G1 X114.594 Y123.037 E9.43472
G1 X114.804 Y122.141 E9.45309
G1 X115.092 Y121.266 E9.47147
G1 X115.454 Y120.42 E9.48983
G1 X115.888 Y119.608 E9.50821
G1 X116.391 Y118.837 E9.52658
G1 X116.959 Y118.112 E9.54496
G1 X117.588 Y117.44 E9.56332
G0 F6000 X117.98 Y117.618
G1 F1200 X118.661 Y117.025 E9.58135
G1 X119.392 Y116.495 E9.59936
G1 X120.167 Y116.031 E9.61739
G1 X120.98 Y115.638 E9.63541
G1 X121.825 Y115.319 E9.65343
G1 X122.694 Y115.075 E9.67145
G1 X123.582 Y114.909 E9.68948
G1 X124.723 Y114.813 E9.71233
G1 X125.33 Y114.8 E9.72444
G1 X136.293 Y114.8 E9.94322
G1 X137.153 Y114.811 E9.96038
G1 X140.404 Y114.907 E10.02529
G1 X142.925 Y114.907 E10.0756
G1 X144.314 Y114.866 E10.10333
G1 X145.307 Y114.848 E10.12315
G1 X146.21 Y114.871 E10.14118
G1 X146.894 Y114.943 E10.1549
G1 X149.509 Y115.306 E10.20759
G1 X152.077 Y115.589 E10.25914
G1 X154.584 Y115.794 E10.30934
G1 X157.113 Y115.929 E10.35988
G1 X160.742 Y116 E10.43232
G1 X172.44 Y116.001 E10.66576
G1 X173.142 Y116.011 E10.67977
G1 X174.044 Y116.064 E10.6978
G1 X174.937 Y116.196 E10.71582
G1 X175.815 Y116.407 E10.73384
G1 X176.671 Y116.695 E10.75186
G1 X177.499 Y117.057 E10.7699
G1 X178.291 Y117.491 E10.78792
G1 X179.041 Y117.994 E10.80594
G1 X179.93 Y118.728 E10.82895
G1 X180.348 Y119.126 E10.84046
G1 X181.762 Y120.536 E10.88031
G1 X182.273 Y121.06 E10.89492
G1 X182.874 Y121.734 E10.91294
G1 X183.413 Y122.458 E10.93095
G1 X183.886 Y123.227 E10.94897
G1 X184.289 Y124.035 E10.96699
G1 X184.62 Y124.876 E10.98503
G1 X184.874 Y125.742 E11.00304
G1 X185.051 Y126.628 E11.02107
G1 X185.149 Y127.526 E11.03909
G1 X185.168 Y127.991 E11.04838
G1 X185.18 Y128.717 E11.06287
G1 X185.18 Y133.296 E11.15425
G1 X185.171 Y133.954 E11.16738
G1 X185.119 Y134.855 E11.18539
G1 X184.987 Y135.749 E11.20343
G1 X184.777 Y136.627 E11.22144
G1 X184.489 Y137.483 E11.23947
G1 X184.127 Y138.31 E11.25748
G1 X183.694 Y139.103 E11.27551
G1 X183.192 Y139.853 E11.29352
G1 X182.321 Y140.887 E11.3205
G1 X181.963 Y141.259 E11.3308
G1 X180.595 Y142.629 E11.36944
G1 X180.11 Y143.101 E11.38295
G1 X179.435 Y143.701 E11.40097
G1 X178.71 Y144.24 E11.419
G1 X178.17 Y144.581 E11.43174
G1 X176.088 Y145.807 E11.47996
G1 X173.94 Y147.15 E11.53051
G1 X171.798 Y148.575 E11.58186
G1 X169.759 Y150.017 E11.63169
G1 X167.701 Y151.561 E11.68304
G1 X165.723 Y153.134 E11.73347
G1 X163.768 Y154.783 E11.78451
G1 X161.897 Y156.453 E11.83456
G1 X160.02 Y158.225 E11.88607
G1 X158.272 Y159.973 E11.9354
G1 X156.486 Y161.861 E11.98727
G1 X154.811 Y163.738 E12.03747
G1 X153.158 Y165.696 E12.08861
G1 X151.59 Y167.665 E12.13884
G1 X150.064 Y169.697 E12.18955
G1 X148.589 Y171.782 E12.24052
G1 X147.179 Y173.898 E12.29126
G1 X145.832 Y176.05 E12.34192
G1 X144.59 Y178.156 E12.39072
G1 X144.097 Y178.913 E12.40874
G1 X143.539 Y179.624 E12.42678
G1 X143.078 Y180.125 E12.44037
G1 X141.483 Y181.745 E12.48574
G1 X140.938 Y182.276 E12.50092
G1 X140.264 Y182.877 E12.51894
G1 X139.539 Y183.416 E12.53697
G1 X138.77 Y183.888 E12.55498
G1 X137.962 Y184.291 E12.573
G1 X137.121 Y184.621 E12.59102
G1 X136.254 Y184.875 E12.60905
G1 X135.369 Y185.052 E12.62706
G1 X134.471 Y185.149 E12.64509
G1 X134.01 Y185.168 E12.6543
G1 X133.284 Y185.18 E12.66879
G1 X128.691 Y185.18 E12.76044
G1 X128.023 Y185.17 E12.77378
G1 X127.122 Y185.116 E12.79179
G1 X126.229 Y184.983 E12.80981
G1 X125.351 Y184.772 E12.82783
G1 X124.495 Y184.484 E12.84585
G1 X123.668 Y184.121 E12.86387
G1 X122.876 Y183.686 E12.88191
G1 X122.126 Y183.183 E12.89993
G1 X121.423 Y182.616 E12.91795
G1 X120.978 Y182.198 E12.93014
G1 X119.483 Y180.709 E12.97224
G1 X118.901 Y180.112 E12.98888
G1 X118.3 Y179.438 E13.0069
G1 X117.762 Y178.713 E13.02492
G1 X117.289 Y177.943 E13.04295
G1 X116.887 Y177.135 E13.06096
G1 X116.558 Y176.294 E13.07898
G1 X116.304 Y175.427 E13.09701
G1 X116.128 Y174.541 E13.11504
G1 X116.031 Y173.643 E13.13306
G1 X116.013 Y173.19 E13.14211
G1 X116 Y172.413 E13.15762
G1 X116 Y160.738 E13.39061
G1 X115.963 Y158.132 E13.44262
G1 X115.854 Y155.566 E13.49387
G1 X115.675 Y153.042 E13.54437
G1 X115.425 Y150.518 E13.59498
G1 X115.103 Y148.009 E13.64546
G1 X114.953 Y146.981 E13.6662
G1 X114.862 Y146.082 E13.68423
G1 X114.849 Y145.255 E13.70073
G1 X114.911 Y142.729 E13.75116
G1 X114.903 Y140.209 E13.80145
G1 X114.85 Y138.783 E13.82992
G1 X114.852 Y138.585 E13.83388
G1 X114.8 Y136.654 E13.87242
G1 X114.801 Y125.547 E14.09408
G1 X114.81 Y124.873 E14.10753
G1 X114.862 Y123.971 E14.12556
G1 X114.994 Y123.078 E14.14357
G1 X115.204 Y122.199 E14.16161
G1 X115.491 Y121.343 E14.17963
G1 X115.852 Y120.516 E14.19763
G1 X116.285 Y119.723 E14.21566
G1 X116.787 Y118.972 E14.23369
G1 X117.353 Y118.269 E14.2517
G1 X117.98 Y117.618 E14.26974
G1 F2700 E9.26974
G0 F6000 X173.276 Y125.539
G0 X174.121 Y126.384
G0 X174.125 Y128.104
G0 X174.06 Y128.105
G1 F2700 E14.26974
G1 F1200 X174.38 Y128.425 E14.27877
G1 X174.381 Y133.571 E14.38146
G1 X174.061 Y133.891 E14.39049
G1 X174.06 Y128.105 E14.50596
G0 F6000 X174.78 Y128.259
G1 F1200 X174.781 Y133.737 E14.61528
G1 X173.661 Y134.857 E14.64689
G1 X173.66 Y127.14 E14.80089
G1 X174.78 Y128.259 E14.83248
G1 F2700 E9.83248
G0 F6000 X174.121 Y126.384
G0 X173.276 Y125.539
G0 X146.401 Y125.135
G0 X146.401 Y125.6
G1 F2700 E14.83248
G1 F1200 X144.598 Y125.6 E14.86847
G1 X145.498 Y125.25 E14.88774
G1 X146.401 Y125.6 E14.90706
G1 F2700 E9.90706
G0 F6000 X146.401 Y125.135
G0 X137.653 Y124.347
G0 X124.347 Y124.347
G0 X124.347 Y137.653
G0 X125.135 Y144.599
G0 X125.6 Y144.599
G1 F2700 E14.90706
G1 F1200 X125.6 Y146.402 E14.94304
G1 X125.25 Y145.502 E14.96231
G1 X125.6 Y144.599 E14.98164
G1 F2700 E9.98164
G0 F6000 X125.135 Y144.599
G0 X125.137 Y147.72
G0 X125.539 Y173.274
G0 X126.387 Y174.122
G0 X127.144 Y174.125
G0 X127.143 Y173.661
G1 F2700 E14.98164
G1 F1200 X134.861 Y173.66 E15.13566
G1 X133.742 Y174.78 E15.16726
G1 X128.263 Y174.781 E15.2766
G1 X127.143 Y173.661 E15.3082
G0 F6000 X128.109 Y174.061
G1 F1200 X133.896 Y174.06 E15.42369
G1 X133.576 Y174.38 E15.43272
G1 X128.429 Y174.381 E15.53544
G1 X128.109 Y174.061 E15.54447
G0 F6000 X126.4 Y172.918
;TYPE:SUPPORT-INTERFACE
G1 F1200 X126.4 Y148.069 E16.04036
G1 X126 Y147.462 E16.05486
