;FLAVOR:Marlin
;TIME:7000
;Filament used: 2.68163m
;Layer height: 0.12
;MINX:113.854
;MINY:113.853
;MINZ:0.12
;MAXX:185.941
;MAXY:185.94
;MAXZ:12
;Generated with Cura_SteamEngine 5.2.1
M140 S50
M105
M190 S50
M104 S200
M105
M109 S200
M82 ;absolute extrusion mode
M201 X500.00 Y500.00 Z100.00 E5000.00 ;Setup machine max acceleration
M203 X500.00 Y500.00 Z10.00 E50.00 ;Setup machine max feedrate
M204 P500.00 R1000.00 T500.00 ;Setup Print/Retract/Travel acceleration
M205 X8.00 Y8.00 Z0.40 E5.00 ;Setup Jerk
M220 S100 ;Reset Feedrate
M221 S100 ;Reset Flowrate

G28 ;Home

G92 E0 ;Reset Extruder
G1 Z2.0 F3000 ;Move Z Axis up
G1 X10.1 Y20 Z0.28 F5000.0 ;Move to start position
G1 X10.1 Y200.0 Z0.28 F1500.0 E15 ;Draw the first line
G1 X10.4 Y200.0 Z0.28 F5000.0 ;Move to side a little
G1 X10.4 Y20 Z0.28 F1500.0 E30 ;Draw the second line
G92 E0 ;Reset Extruder
G1 Z2.0 F3000 ;Move Z Axis up

G92 E0
G92 E0
G1 F2700 E-5
;LAYER_COUNT:100
;LAYER:0
M107
G0 F6000 X117.206 Y117.257 Z0.12
;TYPE:SKIRT
G1 F2700 E0
G1 F1200 X117.895 Y116.62 E0.01873
G1 X118.635 Y116.044 E0.03744
G1 X119.422 Y115.534 E0.05615
G1 X120.25 Y115.092 E0.07488
G1 X121.112 Y114.723 E0.0936
G1 X122.002 Y114.428 E0.11231
G1 X122.914 Y114.21 E0.13102
G1 X123.842 Y114.071 E0.14975
G1 X124.701 Y114.013 E0.16693
G1 X125.33 Y114 E0.17948
G1 X136.465 Y114.001 E0.40169
G1 X137.964 Y114.022 E0.43161
G1 X140.57 Y114.022 E0.48362
G1 X143.09 Y113.95 E0.53393
G1 X144.959 Y113.859 E0.57127
G1 X145.897 Y113.853 E0.58999
G1 X147.004 Y113.95 E0.61216
G1 X149.634 Y114.315 E0.66515
G1 X152.161 Y114.593 E0.71588
G1 X154.622 Y114.795 E0.76516
G1 X157.141 Y114.929 E0.8155
G1 X160.757 Y115 E0.88768
G1 X172.471 Y115.001 E1.12144
G1 X173.174 Y115.011 E1.13547
G1 X174.111 Y115.064 E1.1542
G1 X175.039 Y115.197 E1.17291
G1 X175.953 Y115.409 E1.19163
G1 X176.845 Y115.697 E1.21034
G1 X177.71 Y116.061 E1.22907
G1 X178.54 Y116.497 E1.24778
G1 X179.331 Y117.002 E1.26651
G1 X180.075 Y117.572 E1.28521
G1 X180.714 Y118.151 E1.30242
G1 X181.151 Y118.582 E1.31467
G1 X182.775 Y120.234 E1.3609
G1 X183.404 Y120.93 E1.37962
G1 X183.971 Y121.677 E1.39833
G1 X184.472 Y122.47 E1.41705
G1 X184.903 Y123.302 E1.43575
G1 X185.263 Y124.169 E1.45448
G1 X185.547 Y125.063 E1.4732
G1 X185.754 Y125.977 E1.49191
G1 X185.882 Y126.906 E1.51062
G1 X185.93 Y127.769 E1.52787
G1 X185.939 Y128.333 E1.53913
G1 X185.941 Y133.342 E1.63909
G1 X185.93 Y134.209 E1.65639
G1 X185.877 Y135.145 E1.6751
G1 X185.744 Y136.074 E1.69383
G1 X185.533 Y136.987 E1.71253
G1 X185.244 Y137.88 E1.73126
G1 X184.881 Y138.744 E1.74996
G1 X184.445 Y139.575 E1.76869
G1 X183.94 Y140.365 E1.7874
G1 X183.37 Y141.11 E1.80612
G1 X182.99 Y141.541 E1.81758
G1 X182.587 Y141.965 E1.82926
G1 X180.812 Y143.75 E1.87949
G1 X180.123 Y144.387 E1.89822
G1 X179.382 Y144.962 E1.91694
G1 X178.651 Y145.439 E1.93435
G1 X177.832 Y145.928 E1.95339
G1 X177.179 Y146.306 E1.96845
G1 X175.023 Y147.632 E2.01896
G1 X172.942 Y148.995 E2.0686
G1 X170.879 Y150.432 E2.11877
G1 X168.843 Y151.937 E2.1693
G1 X166.86 Y153.49 E2.21957
G1 X164.92 Y155.101 E2.26989
G1 X163.041 Y156.754 E2.31983
G1 X161.195 Y158.471 E2.37014
G1 X159.399 Y160.24 E2.42045
G1 X157.667 Y162.045 E2.47037
G1 X155.96 Y163.93 E2.52112
G1 X154.313 Y165.853 E2.57165
G1 X152.747 Y167.791 E2.62137
G1 X151.225 Y169.786 E2.67145
G1 X149.743 Y171.846 E2.72209
G1 X148.351 Y173.905 E2.77169
G1 X147.002 Y176.023 E2.8218
G1 X145.44 Y178.647 E2.88274
G1 X144.926 Y179.431 E2.90145
G1 X144.348 Y180.169 E2.92015
G1 X143.833 Y180.731 E2.93537
G1 X143.409 Y181.16 E2.9474
G1 X141.763 Y182.777 E2.99345
G1 X141.066 Y183.405 E3.01217
G1 X140.319 Y183.972 E3.03089
G1 X139.526 Y184.472 E3.04959
G1 X138.693 Y184.904 E3.06832
G1 X137.827 Y185.263 E3.08703
G1 X136.933 Y185.547 E3.10575
G1 X136.018 Y185.753 E3.12447
G1 X135.089 Y185.881 E3.14318
G1 X134.249 Y185.928 E3.15997
G1 X133.493 Y185.94 E3.17506
G1 X128.501 Y185.94 E3.27468
G1 X127.791 Y185.93 E3.28885
G1 X126.855 Y185.877 E3.30756
G1 X125.926 Y185.744 E3.32629
G1 X125.013 Y185.533 E3.34499
G1 X124.12 Y185.244 E3.36372
G1 X123.256 Y184.881 E3.38242
G1 X122.425 Y184.445 E3.40115
G1 X121.635 Y183.94 E3.41986
G1 X120.89 Y183.37 E3.43858
G1 X120.459 Y182.99 E3.45004
G1 X120.037 Y182.589 E3.46166
G1 X118.256 Y180.819 E3.51177
G1 X117.62 Y180.13 E3.53048
G1 X117.044 Y179.39 E3.5492
G1 X116.534 Y178.603 E3.56791
G1 X116.092 Y177.775 E3.58664
G1 X115.723 Y176.913 E3.60535
G1 X115.429 Y176.023 E3.62406
G1 X115.211 Y175.111 E3.64277
G1 X115.072 Y174.183 E3.6615
G1 X115.015 Y173.354 E3.67808
G1 X115 Y172.691 E3.69131
G1 X115 Y160.75 E3.92961
G1 X114.963 Y158.142 E3.98166
G1 X114.856 Y155.62 E4.03203
G1 X114.679 Y153.125 E4.08195
G1 X114.431 Y150.626 E4.13206
G1 X114.107 Y148.093 E4.18303
G1 X114.008 Y147.44 E4.19621
G1 X113.934 Y146.883 E4.20742
G1 X113.855 Y145.949 E4.22612
G1 X113.854 Y145.072 E4.24363
G1 X113.874 Y144.553 E4.25399
G1 X113.965 Y142.829 E4.28844
G1 X114.028 Y140.307 E4.33879
G1 X114 Y136.773 E4.40931
G1 X114.001 Y125.538 E4.63352
G1 X114.011 Y124.849 E4.64727
G1 X114.065 Y123.913 E4.66598
G1 X114.198 Y122.985 E4.68469
G1 X114.41 Y122.071 E4.70341
G1 X114.698 Y121.179 E4.72212
G1 X115.062 Y120.314 E4.74085
G1 X115.498 Y119.484 E4.75956
G1 X116.003 Y118.694 E4.77827
G1 X116.574 Y117.95 E4.79699
G1 X117.206 Y117.257 E4.8157
G0 F6000 X117.598 Y117.431
G1 F1200 X118.283 Y116.817 E4.83406
G1 X119.02 Y116.264 E4.85245
G1 X119.801 Y115.777 E4.87082
G1 X120.622 Y115.36 E4.88919
G1 X121.476 Y115.016 E4.90756
G1 X122.356 Y114.747 E4.92593
G1 X123.257 Y114.555 E4.94431
G1 X124.17 Y114.442 E4.96267
G1 X124.712 Y114.413 E4.9735
G1 X125.33 Y114.4 E4.98584
G1 X136.46 Y114.401 E5.20795
G1 X137.959 Y114.422 E5.23787
G1 X140.546 Y114.422 E5.28949
G1 X143.123 Y114.348 E5.34094
G1 X144.979 Y114.258 E5.37802
G1 X145.899 Y114.254 E5.39638
G1 X146.949 Y114.346 E5.41742
G1 X149.607 Y114.715 E5.47097
G1 X152.083 Y114.988 E5.52068
G1 X154.639 Y115.197 E5.57186
G1 X157.112 Y115.328 E5.62128
G1 X160.75 Y115.4 E5.69389
G1 X172.466 Y115.401 E5.9277
G1 X173.169 Y115.411 E5.94173
G1 X174.088 Y115.464 E5.9601
G1 X174.999 Y115.597 E5.97847
G1 X175.895 Y115.808 E5.99684
G1 X176.769 Y116.096 E6.01521
G1 X177.616 Y116.459 E6.0336
G1 X178.427 Y116.894 E6.05196
G1 X179.198 Y117.398 E6.07034
G1 X179.922 Y117.966 E6.08871
G1 X180.434 Y118.436 E6.10258
G1 X180.866 Y118.862 E6.11468
G1 X182.49 Y120.514 E6.16091
G1 X183.106 Y121.198 E6.17928
G1 X183.661 Y121.933 E6.19766
G1 X184.15 Y122.713 E6.21603
G1 X184.569 Y123.533 E6.23441
G1 X184.916 Y124.386 E6.25279
G1 X185.187 Y125.265 E6.27114
G1 X185.381 Y126.165 E6.28952
G1 X185.496 Y127.079 E6.3079
G1 X185.53 Y127.776 E6.32183
G1 X185.539 Y128.34 E6.33308
G1 X185.541 Y133.342 E6.4329
G1 X185.53 Y134.203 E6.45009
G1 X185.477 Y135.122 E6.46846
G1 X185.345 Y136.033 E6.48683
G1 X185.133 Y136.93 E6.50522
G1 X184.845 Y137.804 E6.52359
G1 X184.483 Y138.65 E6.54195
G1 X184.048 Y139.462 E6.56033
G1 X183.544 Y140.232 E6.5787
G1 X182.697 Y141.269 E6.60542
G1 X182.303 Y141.683 E6.61682
G1 X180.528 Y143.468 E6.66706
G1 X179.851 Y144.092 E6.68543
G1 X179.123 Y144.655 E6.7038
G1 X178.446 Y145.095 E6.71991
G1 X177.488 Y145.666 E6.74217
G1 X176.96 Y145.97 E6.75432
G1 X174.841 Y147.274 E6.80398
G1 X172.717 Y148.665 E6.85464
G1 X170.618 Y150.127 E6.90569
G1 X168.604 Y151.615 E6.95566
G1 X166.603 Y153.183 E7.00639
G1 X164.684 Y154.777 E7.05618
G1 X162.768 Y156.461 E7.10708
G1 X160.907 Y158.192 E7.1578
G1 X159.112 Y159.961 E7.2081
G1 X157.365 Y161.782 E7.25846
G1 X155.675 Y163.646 E7.30867
G1 X154.014 Y165.587 E7.35965
G1 X152.433 Y167.543 E7.40984
G1 X150.903 Y169.55 E7.4602
G1 X149.415 Y171.618 E7.51104
G1 X148.009 Y173.697 E7.56113
G1 X146.649 Y175.834 E7.61168
G1 X145.096 Y178.442 E7.67225
G1 X144.592 Y179.212 E7.69062
G1 X144.022 Y179.935 E7.70899
G1 X143.548 Y180.451 E7.72297
G1 X143.26 Y180.744 E7.73117
G1 X141.482 Y182.492 E7.78093
G1 X140.798 Y183.108 E7.7993
G1 X140.063 Y183.662 E7.81767
G1 X139.283 Y184.151 E7.83604
G1 X138.463 Y184.57 E7.85442
G1 X137.61 Y184.916 E7.87279
G1 X136.73 Y185.187 E7.89116
G1 X135.83 Y185.38 E7.90953
G1 X134.917 Y185.495 E7.92789
G1 X134.242 Y185.528 E7.94138
G1 X133.493 Y185.54 E7.95633
G1 X128.507 Y185.54 E8.05583
G1 X127.797 Y185.53 E8.07
G1 X126.878 Y185.477 E8.08837
G1 X125.967 Y185.345 E8.10674
G1 X125.07 Y185.133 E8.12513
G1 X124.196 Y184.845 E8.1435
G1 X123.35 Y184.483 E8.16186
G1 X122.538 Y184.048 E8.18025
G1 X121.768 Y183.544 E8.19861
G1 X120.731 Y182.697 E8.22533
G1 X120.319 Y182.306 E8.23667
G1 X118.538 Y180.536 E8.28677
G1 X117.914 Y179.859 E8.30515
G1 X117.351 Y179.13 E8.32353
G1 X116.853 Y178.356 E8.3419
G1 X116.424 Y177.541 E8.36028
G1 X116.068 Y176.692 E8.37865
G1 X115.786 Y175.816 E8.39701
G1 X115.582 Y174.918 E8.41539
G1 X115.456 Y174.006 E8.43376
G1 X115.415 Y173.342 E8.44704
G1 X115.4 Y172.691 E8.46003
G1 X115.4 Y160.744 E8.69845
G1 X115.363 Y158.119 E8.75084
G1 X115.256 Y155.611 E8.80093
G1 X115.077 Y153.079 E8.85159
G1 X114.829 Y150.577 E8.90176
G1 X114.507 Y148.063 E8.95234
G1 X114.403 Y147.38 E8.96613
G1 X114.331 Y146.833 E8.97714
G1 X114.254 Y145.916 E8.99551
G1 X114.254 Y145.088 E9.01203
G1 X114.281 Y144.414 E9.02549
G1 X114.365 Y142.827 E9.0572
G1 X114.428 Y140.314 E9.10737
G1 X114.4 Y136.77 E9.1781
G1 X114.401 Y125.544 E9.40212
G1 X114.411 Y124.855 E9.41587
G1 X114.464 Y123.936 E9.43424
G1 X114.597 Y123.025 E9.45262
G1 X114.809 Y122.129 E9.47099
G1 X115.097 Y121.255 E9.48936
G1 X115.46 Y120.409 E9.50773
G1 X115.895 Y119.597 E9.52611
G1 X116.399 Y118.827 E9.54448
G1 X116.968 Y118.103 E9.56285
G1 X117.598 Y117.431 E9.58123
G0 F6000 X117.989 Y117.61
G1 F1200 X118.671 Y117.018 E9.59926
G1 X119.403 Y116.488 E9.61729
G1 X120.179 Y116.026 E9.63531
G1 X120.992 Y115.634 E9.65333
G1 X121.837 Y115.315 E9.67135
G1 X122.707 Y115.072 E9.68938
G1 X123.595 Y114.908 E9.7074
G1 X124.723 Y114.813 E9.72999
G1 X125.33 Y114.8 E9.7421
G1 X136.454 Y114.801 E9.96409
G1 X137.953 Y114.822 E9.99401
G1 X140.558 Y114.822 E10.046
G1 X143.152 Y114.748 E10.09778
G1 X144.998 Y114.658 E10.13467
G1 X145.901 Y114.654 E10.15269
G1 X146.894 Y114.743 E10.17258
G1 X149.509 Y115.106 E10.22527
G1 X152.077 Y115.389 E10.27683
G1 X154.584 Y115.594 E10.32702
G1 X157.113 Y115.729 E10.37756
G1 X160.742 Y115.8 E10.45
G1 X172.46 Y115.801 E10.68384
G1 X173.163 Y115.811 E10.69787
G1 X174.065 Y115.864 E10.71591
G1 X174.958 Y115.996 E10.73392
G1 X175.836 Y116.207 E10.75194
G1 X176.692 Y116.495 E10.76996
G1 X177.519 Y116.857 E10.78798
G1 X178.311 Y117.291 E10.806
G1 X179.062 Y117.793 E10.82403
G1 X179.765 Y118.36 E10.84205
G1 X180.154 Y118.722 E10.85266
G1 X180.581 Y119.142 E10.86461
G1 X182.205 Y120.794 E10.91084
G1 X182.809 Y121.466 E10.92887
G1 X183.351 Y122.188 E10.94689
G1 X183.827 Y122.955 E10.9649
G1 X184.234 Y123.762 E10.98294
G1 X184.567 Y124.601 E11.00095
G1 X184.825 Y125.467 E11.01898
G1 X185.006 Y126.351 E11.03699
G1 X185.107 Y127.249 E11.05503
G1 X185.13 Y127.782 E11.06567
G1 X185.139 Y128.346 E11.07693
G1 X185.141 Y133.342 E11.17663
G1 X185.13 Y134.198 E11.19371
G1 X185.077 Y135.099 E11.21172
G1 X184.945 Y135.993 E11.22976
G1 X184.734 Y136.871 E11.24778
G1 X184.447 Y137.727 E11.2658
G1 X184.085 Y138.554 E11.28381
G1 X183.651 Y139.346 E11.30183
G1 X183.148 Y140.097 E11.31987
G1 X182.404 Y140.996 E11.34316
G1 X182.02 Y141.401 E11.3543
G1 X180.245 Y143.186 E11.40453
G1 X179.58 Y143.798 E11.42257
G1 X178.864 Y144.348 E11.44059
G1 X178.241 Y144.752 E11.4554
G1 X177.422 Y145.241 E11.47444
G1 X176.798 Y145.601 E11.48882
G1 X174.593 Y146.958 E11.54048
G1 X172.498 Y148.33 E11.59046
G1 X170.391 Y149.797 E11.64169
G1 X168.365 Y151.294 E11.69197
G1 X166.368 Y152.859 E11.7426
G1 X164.39 Y154.502 E11.79391
G1 X162.497 Y156.167 E11.84422
G1 X160.636 Y157.897 E11.89493
G1 X158.843 Y159.663 E11.94515
G1 X157.08 Y161.502 E11.99599
G1 X155.358 Y163.402 E12.04716
G1 X153.715 Y165.321 E12.09758
G1 X152.106 Y167.311 E12.14865
G1 X150.588 Y169.303 E12.19863
G1 X149.092 Y171.383 E12.24976
G1 X147.673 Y173.479 E12.30027
G1 X146.317 Y175.61 E12.35067
G1 X144.753 Y178.237 E12.41169
G1 X144.257 Y178.992 E12.42971
G1 X143.696 Y179.7 E12.44774
G1 X143.262 Y180.17 E12.46051
G1 X142.848 Y180.589 E12.47226
G1 X141.202 Y182.206 E12.51831
G1 X140.53 Y182.81 E12.53634
G1 X139.808 Y183.352 E12.55436
G1 X139.041 Y183.828 E12.57237
G1 X138.234 Y184.234 E12.5904
G1 X137.395 Y184.567 E12.60841
G1 X136.529 Y184.825 E12.62644
G1 X135.644 Y185.005 E12.64447
G1 X134.747 Y185.106 E12.66248
G1 X134.235 Y185.128 E12.67271
G1 X133.493 Y185.14 E12.68752
G1 X128.512 Y185.14 E12.78692
G1 X127.802 Y185.13 E12.80109
G1 X126.901 Y185.077 E12.8191
G1 X126.007 Y184.945 E12.83713
G1 X125.129 Y184.734 E12.85515
G1 X124.273 Y184.447 E12.87317
G1 X123.446 Y184.085 E12.89119
G1 X122.654 Y183.651 E12.90921
G1 X121.903 Y183.148 E12.92725
G1 X121.004 Y182.404 E12.95053
G1 X120.601 Y182.022 E12.96162
G1 X118.82 Y180.252 E13.01172
G1 X118.208 Y179.587 E13.02976
G1 X117.658 Y178.872 E13.04776
G1 X117.172 Y178.11 E13.0658
G1 X116.757 Y177.308 E13.08382
G1 X116.413 Y176.473 E13.10184
G1 X116.145 Y175.61 E13.11987
G1 X115.954 Y174.728 E13.13788
G1 X115.843 Y173.832 E13.1559
G1 X115.815 Y173.33 E13.16593
G1 X115.8 Y172.691 E13.17869
G1 X115.8 Y160.738 E13.41722
G1 X115.763 Y158.132 E13.46923
G1 X115.654 Y155.564 E13.52053
G1 X115.477 Y153.062 E13.57058
G1 X115.225 Y150.519 E13.62158
G1 X114.902 Y147.997 E13.67232
G1 X114.727 Y146.783 E13.6968
G1 X114.653 Y145.882 E13.71484
G1 X114.654 Y145.103 E13.73038
G1 X114.68 Y144.435 E13.74372
G1 X114.766 Y142.822 E13.77596
G1 X114.828 Y140.321 E13.82589
G1 X114.8 Y136.767 E13.89681
G1 X114.801 Y125.55 E14.12066
G1 X114.811 Y124.861 E14.13441
G1 X114.864 Y123.959 E14.15244
G1 X114.997 Y123.066 E14.17046
G1 X115.208 Y122.188 E14.18848
G1 X115.496 Y121.332 E14.2065
G1 X115.858 Y120.505 E14.22452
G1 X116.293 Y119.713 E14.24255
G1 X116.795 Y118.963 E14.26056
G1 X117.362 Y118.26 E14.27858
G1 X117.989 Y117.61 E14.29661
G1 F2700 E9.29661
G0 F6000 X173.311 Y125.339
G0 X174.321 Y126.387
G0 X174.325 Y128.108
G0 X174.26 Y128.109
G1 F2700 E14.29661
G1 F1200 X174.34 Y128.189 E14.29886
G1 X174.341 Y133.811 E14.41106
G1 X174.261 Y133.891 E14.41332
G1 X174.26 Y128.109 E14.5287
G0 F6000 X174.74 Y128.023
G1 F1200 X174.741 Y133.977 E14.64752
G1 X173.861 Y134.857 E14.67236
G1 X173.86 Y127.143 E14.8263
G1 X174.74 Y128.023 E14.85113
G1 F2700 E9.85113
G0 F6000 X174.321 Y126.387
G0 X173.311 Y125.339
G0 X146.401 Y124.935
G0 X146.401 Y125.4
G1 F2700 E14.85113
G1 F1200 X144.598 Y125.4 E14.88711
G1 X145.498 Y125.05 E14.90638
G1 X146.401 Y125.4 E14.92571
G1 F2700 E9.92571
G0 F6000 X146.401 Y124.935
G0 X137.653 Y124.347
G0 X124.347 Y124.347
G0 X124.347 Y137.653
G0 X124.935 Y144.6
G0 X125.4 Y144.6
G1 F2700 E14.92571
G1 F1200 X125.4 Y146.401 E14.96165
G1 X125.05 Y145.502 E14.9809
G1 X125.4 Y144.6 E15.00021
G1 F2700 E10.00021
G0 F6000 X124.935 Y144.6
G0 X124.937 Y147.72
G0 X125.347 Y173.674
G0 X126.387 Y174.322
G0 X127.144 Y174.325
G0 X127.143 Y173.861
G1 F2700 E15.00021
G1 F1200 X134.857 Y173.86 E15.15415
G1 X133.977 Y174.74 E15.17899
G1 X128.023 Y174.741 E15.29781
G1 X127.143 Y173.861 E15.32264
G0 F6000 X128.109 Y174.261
G1 F1200 X133.891 Y174.26 E15.43803
G1 X133.811 Y174.34 E15.44029
G1 X128.189 Y174.341 E15.55248
G1 X128.109 Y174.261 E15.55474
G0 F6000 X126.2 Y172.917
;TYPE:SUPPORT-INTERFACE
G1 F1200 X126.2 Y148.069 E16.05061
G1 X125.8 Y147.462 E16.06511
G1 X125.8 Y143.574 E16.1427
G1 X126.2 Y143.015 E16.15642
G1 X126.2 Y138 E16.2565
G1 X135.8 Y138 E16.44808
G1 X135.8 Y172.934 E17.14522
G1 X135.549 Y173.167 E17.15206
G1 X135.257 Y173.46 E17.16031
G1 X126.743 Y173.461 E17.33022
