;FLAVOR:Marlin
;TIME:13304
;Filament used: 4.34638m
;Layer height: 0.12
;MINX:127.048
;MINY:110.38
;MINZ:0.12
;MAXX:199.038
;MAXY:195.861
;MAXZ:49.8
;Generated with Cura_SteamEngine 5.2.1
M140 S50
M105
M190 S50
M104 S200
M105
M109 S200
M82 ;absolute extrusion mode
M201 X500.00 Y500.00 Z100.00 E5000.00 ;Setup machine max acceleration
M203 X500.00 Y500.00 Z10.00 E50.00 ;Setup machine max feedrate
M204 P500.00 R1000.00 T500.00 ;Setup Print/Retract/Travel acceleration
M205 X8.00 Y8.00 Z0.40 E5.00 ;Setup Jerk
M220 S100 ;Reset Feedrate
M221 S100 ;Reset Flowrate

G28 ;Home

G92 E0 ;Reset Extruder
G1 Z2.0 F3000 ;Move Z Axis up
G1 X10.1 Y20 Z0.28 F5000.0 ;Move to start position
G1 X10.1 Y200.0 Z0.28 F1500.0 E15 ;Draw the first line
G1 X10.4 Y200.0 Z0.28 F5000.0 ;Move to side a little
G1 X10.4 Y20 Z0.28 F1500.0 E30 ;Draw the second line
G92 E0 ;Reset Extruder
G1 Z2.0 F3000 ;Move Z Axis up

G92 E0
G92 E0
G1 F2700 E-5
;LAYER_COUNT:417
;LAYER:0
M107
G0 F6000 X129.613 Y114.339 Z0.12
;TYPE:SKIRT
G1 F2700 E0
G1 F1200 X130.244 Y113.646 E0.0187
G1 X130.932 Y113.008 E0.03743
G1 X131.672 Y112.432 E0.05614
G1 X132.458 Y111.92 E0.07486
G1 X133.285 Y111.478 E0.09357
G1 X134.147 Y111.107 E0.1123
G1 X135.037 Y110.812 E0.13101
G1 X135.949 Y110.593 E0.14973
G1 X136.876 Y110.453 E0.16844
G1 X137.749 Y110.393 E0.1859
G1 X138.378 Y110.38 E0.19846
G1 X149.5 Y110.381 E0.42041
G1 X150.193 Y110.391 E0.43424
G1 X153.474 Y110.491 E0.49975
G1 X156.037 Y110.491 E0.55089
G1 X158.258 Y110.434 E0.59523
G1 X159.196 Y110.45 E0.61395
G1 X159.934 Y110.519 E0.62874
G1 X160.559 Y110.6 E0.64132
G1 X162.243 Y110.842 E0.67527
G1 X164.751 Y111.13 E0.72565
G1 X167.241 Y111.346 E0.77553
G1 X169.795 Y111.494 E0.82658
G1 X172.301 Y111.569 E0.87661
G1 X173.758 Y111.58 E0.90569
G1 X185.498 Y111.581 E1.13998
G1 X186.2 Y111.591 E1.15399
G1 X187.136 Y111.644 E1.17269
G1 X188.064 Y111.777 E1.1914
G1 X188.978 Y111.989 E1.21013
G1 X189.871 Y112.277 E1.22885
G1 X190.735 Y112.641 E1.24756
G1 X191.566 Y113.077 E1.26629
G1 X192.356 Y113.582 E1.285
G1 X193.1 Y114.152 E1.3037
G1 X193.52 Y114.522 E1.31487
G1 X193.957 Y114.937 E1.3269
G1 X195.331 Y116.306 E1.36561
G1 X195.929 Y116.92 E1.38271
G1 X196.553 Y117.62 E1.40143
G1 X197.116 Y118.37 E1.42014
G1 X197.612 Y119.166 E1.43886
G1 X198.038 Y120.001 E1.45756
G1 X198.392 Y120.87 E1.47629
G1 X198.671 Y121.765 E1.495
G1 X198.872 Y122.681 E1.51371
G1 X198.995 Y123.611 E1.53243
G1 X199.038 Y124.548 E1.55115
G1 X199.017 Y125.259 E1.56535
G1 X198.879 Y127.506 E1.61027
G1 X198.773 Y130.789 E1.67582
G1 X198.703 Y131.724 E1.69453
G1 X198.554 Y132.65 E1.71325
G1 X198.326 Y133.56 E1.73197
G1 X198.021 Y134.447 E1.75069
G1 X197.642 Y135.305 E1.76941
G1 X197.192 Y136.127 E1.78811
G1 X196.411 Y137.254 E1.81547
G1 X195.558 Y138.333 E1.84292
G1 X194.013 Y140.356 E1.89372
G1 X192.544 Y142.397 E1.9439
G1 X191.147 Y144.458 E1.99359
G1 X189.768 Y146.62 E2.04476
G1 X188.482 Y148.771 E2.09478
G1 X187.253 Y150.962 E2.14491
G1 X186.092 Y153.18 E2.19487
G1 X184.973 Y155.469 E2.24571
G1 X183.949 Y157.728 E2.29521
G1 X182.96 Y160.084 E2.3462
G1 X182.054 Y162.422 E2.39624
G1 X181.221 Y164.767 E2.4459
G1 X180.431 Y167.211 E2.49716
G1 X179.741 Y169.566 E2.54613
G1 X179.089 Y172.052 E2.59742
G1 X178.527 Y174.479 E2.64714
G1 X178.028 Y176.945 E2.69734
G1 X177.597 Y179.436 E2.74779
G1 X177.24 Y181.914 E2.79776
G1 X176.922 Y184.693 E2.85358
G1 X176.797 Y185.944 E2.87866
G1 X176.664 Y186.873 E2.89739
G1 X176.452 Y187.786 E2.9161
G1 X176.164 Y188.679 E2.93482
G1 X175.8 Y189.543 E2.95353
G1 X175.365 Y190.374 E2.97225
G1 X174.86 Y191.164 E2.99096
G1 X174.289 Y191.909 E3.00969
G1 X173.658 Y192.602 E3.0284
G1 X172.969 Y193.238 E3.04711
G1 X172.229 Y193.814 E3.06582
G1 X171.442 Y194.325 E3.08455
G1 X170.615 Y194.767 E3.10326
G1 X169.753 Y195.137 E3.12198
G1 X168.863 Y195.432 E3.14069
G1 X167.951 Y195.65 E3.1594
G1 X167.023 Y195.789 E3.17813
G1 X166.16 Y195.848 E3.19539
G1 X165.531 Y195.861 E3.20795
G1 X154.411 Y195.86 E3.42986
G1 X153.71 Y195.85 E3.44385
G1 X152.774 Y195.797 E3.46256
G1 X151.845 Y195.664 E3.48129
G1 X150.932 Y195.452 E3.49999
G1 X150.039 Y195.164 E3.51872
G1 X149.175 Y194.8 E3.53743
G1 X148.344 Y194.364 E3.55615
G1 X147.554 Y193.859 E3.57486
G1 X146.81 Y193.289 E3.59357
G1 X146.117 Y192.657 E3.61229
G1 X145.316 Y191.771 E3.63612
G1 X144.678 Y190.981 E3.65639
G1 X144.017 Y190.14 E3.67773
G1 X142.421 Y188.223 E3.72751
G1 X140.749 Y186.328 E3.77794
G1 X139.033 Y184.49 E3.82812
G1 X137.267 Y182.701 E3.87829
G1 X135.45 Y180.963 E3.92847
G1 X134.026 Y179.671 E3.96684
G1 X133.316 Y179.002 E3.98631
G1 X131.959 Y177.648 E4.02456
G1 X131.359 Y177.03 E4.04175
G1 X130.735 Y176.33 E4.06046
G1 X130.174 Y175.578 E4.07919
G1 X129.679 Y174.782 E4.09789
G1 X129.253 Y173.946 E4.11662
G1 X128.9 Y173.077 E4.13534
G1 X128.622 Y172.182 E4.15404
G1 X128.422 Y171.265 E4.17277
G1 X128.3 Y170.336 E4.19147
G1 X128.26 Y169.572 E4.20673
G1 X128.248 Y168.818 E4.22178
G1 X128.248 Y157.117 E4.45529
G1 X128.211 Y154.508 E4.50736
G1 X128.104 Y151.986 E4.55773
G1 X127.927 Y149.492 E4.60763
G1 X127.68 Y146.997 E4.65766
G1 X127.354 Y144.451 E4.70889
G1 X127.211 Y143.476 E4.72855
G1 X127.115 Y142.543 E4.74727
G1 X127.098 Y141.617 E4.76575
G1 X127.159 Y139.054 E4.81691
G1 X127.15 Y136.573 E4.86642
G1 X127.099 Y135.191 E4.89402
G1 X127.1 Y134.985 E4.89813
G1 X127.048 Y133.05 E4.93676
G1 X127.049 Y121.916 E5.15895
G1 X127.058 Y121.242 E5.1724
G1 X127.11 Y120.306 E5.19111
G1 X127.243 Y119.377 E5.20984
G1 X127.453 Y118.463 E5.22856
G1 X127.741 Y117.571 E5.24726
G1 X128.104 Y116.706 E5.26598
G1 X128.539 Y115.875 E5.2847
G1 X129.043 Y115.084 E5.30342
G1 X129.613 Y114.339 E5.32214
G0 F6000 X130.007 Y114.492
G1 F1200 X130.636 Y113.82 E5.34051
G1 X131.321 Y113.205 E5.35888
G1 X132.056 Y112.651 E5.37724
G1 X132.837 Y112.163 E5.39562
G1 X133.658 Y111.745 E5.41401
G1 X134.511 Y111.4 E5.43237
G1 X135.391 Y111.13 E5.45074
G1 X136.291 Y110.937 E5.46911
G1 X137.205 Y110.823 E5.48749
G1 X137.76 Y110.793 E5.49858
G1 X138.378 Y110.78 E5.51092
G1 X149.341 Y110.78 E5.72969
G1 X150.187 Y110.791 E5.74658
G1 X153.498 Y110.891 E5.81268
G1 X156.008 Y110.891 E5.86277
G1 X158.268 Y110.833 E5.90789
G1 X159.189 Y110.85 E5.92627
G1 X159.883 Y110.915 E5.94018
G1 X160.337 Y110.973 E5.94932
G1 X162.177 Y111.237 E5.98641
G1 X164.742 Y111.532 E6.03794
G1 X167.218 Y111.746 E6.08753
G1 X169.759 Y111.894 E6.13833
G1 X172.285 Y111.969 E6.18876
G1 X173.755 Y111.98 E6.21809
G1 X185.492 Y111.981 E6.45232
G1 X186.194 Y111.991 E6.46633
G1 X187.113 Y112.044 E6.4847
G1 X188.024 Y112.177 E6.50307
G1 X188.92 Y112.388 E6.52144
G1 X189.795 Y112.676 E6.53982
G1 X190.641 Y113.039 E6.5582
G1 X191.452 Y113.474 E6.57656
G1 X192.223 Y113.978 E6.59494
G1 X193.248 Y114.815 E6.62135
G1 X193.675 Y115.22 E6.6331
G1 X195.049 Y116.589 E6.6718
G1 X195.642 Y117.198 E6.68877
G1 X196.254 Y117.886 E6.70714
G1 X196.805 Y118.624 E6.72552
G1 X197.289 Y119.407 E6.74389
G1 X197.703 Y120.23 E6.76228
G1 X198.044 Y121.085 E6.78064
G1 X198.31 Y121.966 E6.79901
G1 X198.498 Y122.867 E6.81738
G1 X198.608 Y123.781 E6.83575
G1 X198.637 Y124.701 E6.85412
G1 X198.618 Y125.234 E6.86476
G1 X198.481 Y127.468 E6.90943
G1 X198.374 Y130.776 E6.97548
G1 X198.304 Y131.694 E6.99385
G1 X198.155 Y132.603 E7.01223
G1 X197.928 Y133.495 E7.0306
G1 X197.624 Y134.364 E7.04897
G1 X197.246 Y135.203 E7.06734
G1 X196.796 Y136.007 E7.08572
G1 X196.097 Y137.006 E7.11005
G1 X195.269 Y138.054 E7.13671
G1 X193.682 Y140.131 E7.18887
G1 X192.221 Y142.161 E7.23878
G1 X190.795 Y144.266 E7.28952
G1 X189.43 Y146.405 E7.34016
G1 X188.138 Y148.564 E7.39037
G1 X186.916 Y150.745 E7.44026
G1 X185.721 Y153.027 E7.49167
G1 X184.62 Y155.279 E7.54169
G1 X183.574 Y157.587 E7.59226
G1 X182.589 Y159.933 E7.64303
G1 X181.68 Y162.28 E7.69326
G1 X180.839 Y164.646 E7.74337
G1 X180.063 Y167.048 E7.79375
G1 X179.345 Y169.498 E7.84469
G1 X178.709 Y171.925 E7.89476
G1 X178.124 Y174.45 E7.94649
G1 X177.634 Y176.871 E7.99578
G1 X177.206 Y179.342 E8.04583
G1 X176.84 Y181.882 E8.09704
G1 X176.529 Y184.606 E8.15175
G1 X176.399 Y185.904 E8.17778
G1 X176.268 Y186.816 E8.19617
G1 X176.058 Y187.712 E8.21454
G1 X175.771 Y188.587 E8.23291
G1 X175.41 Y189.434 E8.25129
G1 X174.976 Y190.246 E8.26966
G1 X174.474 Y191.017 E8.28802
G1 X173.906 Y191.742 E8.3064
G1 X173.278 Y192.415 E8.32477
G1 X172.594 Y193.031 E8.34314
G1 X171.858 Y193.585 E8.36152
G1 X171.078 Y194.074 E8.37989
G1 X170.258 Y194.492 E8.39826
G1 X169.405 Y194.838 E8.41663
G1 X168.525 Y195.109 E8.43501
G1 X167.625 Y195.303 E8.45338
G1 X166.711 Y195.417 E8.47176
G1 X166.149 Y195.448 E8.48299
G1 X165.531 Y195.461 E8.49533
G1 X154.417 Y195.46 E8.71712
G1 X153.716 Y195.45 E8.73111
G1 X152.797 Y195.397 E8.74948
G1 X151.886 Y195.264 E8.76785
G1 X150.99 Y195.053 E8.78622
G1 X150.115 Y194.765 E8.80461
G1 X149.269 Y194.402 E8.82298
G1 X148.458 Y193.967 E8.84134
G1 X147.687 Y193.463 E8.85973
G1 X146.963 Y192.894 E8.8781
G1 X146.291 Y192.265 E8.89647
G1 X145.627 Y191.519 E8.9164
G1 X144.993 Y190.734 E8.93654
G1 X144.341 Y189.904 E8.9576
G1 X142.712 Y187.948 E9.0084
G1 X141.058 Y186.074 E9.05828
G1 X139.31 Y184.2 E9.10942
G1 X137.563 Y182.431 E9.15904
G1 X135.711 Y180.659 E9.21019
G1 X134.294 Y179.374 E9.24836
G1 X133.599 Y178.719 E9.26742
G1 X132.242 Y177.365 E9.30567
G1 X131.646 Y176.752 E9.32274
G1 X131.035 Y176.064 E9.3411
G1 X130.485 Y175.325 E9.35948
G1 X130.002 Y174.541 E9.37786
G1 X129.589 Y173.719 E9.39622
G1 X129.248 Y172.863 E9.41461
G1 X128.983 Y171.981 E9.43298
G1 X128.796 Y171.08 E9.45135
G1 X128.688 Y170.166 E9.46971
G1 X128.66 Y169.565 E9.48172
G1 X128.648 Y168.818 E9.49663
G1 X128.648 Y157.111 E9.73026
G1 X128.611 Y154.486 E9.78265
G1 X128.504 Y151.977 E9.83276
G1 X128.326 Y149.457 E9.88318
G1 X128.077 Y146.943 E9.93359
G1 X127.749 Y144.386 E9.98504
G1 X127.607 Y143.418 E10.00456
G1 X127.513 Y142.502 E10.02294
G1 X127.498 Y141.626 E10.04042
G1 X127.559 Y139.062 E10.0916
G1 X127.55 Y136.556 E10.14161
G1 X127.499 Y135.176 E10.16917
G1 X127.5 Y134.973 E10.17322
G1 X127.448 Y133.05 E10.21161
G1 X127.449 Y121.921 E10.4337
G1 X127.458 Y121.247 E10.44715
G1 X127.51 Y120.328 E10.46552
G1 X127.642 Y119.417 E10.48389
G1 X127.852 Y118.521 E10.50226
G1 X128.14 Y117.646 E10.52064
G1 X128.502 Y116.8 E10.539
G1 X128.936 Y115.988 E10.55738
G1 X129.439 Y115.217 E10.57575
G1 X130.007 Y114.492 E10.59413
G0 F6000 X130.401 Y114.649
G1 F1200 X131.028 Y113.998 E10.61217
G1 X131.709 Y113.405 E10.63019
G1 X132.44 Y112.875 E10.64821
G1 X133.215 Y112.411 E10.66623
G1 X134.028 Y112.018 E10.68425
G1 X134.873 Y111.699 E10.70228
G1 X135.742 Y111.455 E10.72029
G1 X136.63 Y111.289 E10.73832
G1 X137.771 Y111.193 E10.76117
G1 X138.378 Y111.18 E10.77328
G1 X149.341 Y111.18 E10.99206
G1 X150.181 Y111.191 E11.00883
G1 X153.486 Y111.291 E11.07481
G1 X156.018 Y111.291 E11.12534
G1 X158.278 Y111.233 E11.17046
G1 X159.181 Y111.25 E11.18848
G1 X159.833 Y111.312 E11.20155
G1 X160.287 Y111.37 E11.21068
G1 X162.146 Y111.636 E11.24816
G1 X164.66 Y111.925 E11.29866
G1 X167.197 Y112.145 E11.34948
G1 X169.76 Y112.294 E11.40071
G1 X172.27 Y112.369 E11.45082
G1 X173.752 Y112.38 E11.4804
G1 X185.486 Y112.381 E11.71456
G1 X186.188 Y112.391 E11.72857
G1 X187.09 Y112.444 E11.74661
G1 X187.983 Y112.576 E11.76462
G1 X188.861 Y112.787 E11.78264
G1 X189.717 Y113.075 E11.80066
G1 X190.545 Y113.437 E11.8187
G1 X191.337 Y113.871 E11.83672
G1 X192.087 Y114.374 E11.85474
G1 X192.976 Y115.108 E11.87775
G1 X193.392 Y115.503 E11.8892
G1 X194.766 Y116.872 E11.9279
G1 X195.355 Y117.477 E11.94475
G1 X195.955 Y118.152 E11.96278
G1 X196.493 Y118.877 E11.98079
G1 X196.965 Y119.648 E11.99883
G1 X197.366 Y120.457 E12.01685
G1 X197.695 Y121.298 E12.03487
G1 X197.947 Y122.165 E12.05289
G1 X198.122 Y123.051 E12.07091
G1 X198.218 Y123.949 E12.08894
G1 X198.219 Y125.21 E12.1141
G1 X198.08 Y127.466 E12.15921
G1 X197.974 Y130.763 E12.22504
G1 X197.905 Y131.664 E12.24307
G1 X197.756 Y132.555 E12.2611
G1 X197.53 Y133.429 E12.27911
G1 X197.227 Y134.28 E12.29714
G1 X196.85 Y135.1 E12.31515
G1 X196.401 Y135.884 E12.33318
G1 X195.783 Y136.758 E12.35454
G1 X194.95 Y137.813 E12.38137
G1 X193.372 Y139.878 E12.43323
G1 X191.893 Y141.933 E12.48376
G1 X190.459 Y144.048 E12.53475
G1 X189.093 Y146.191 E12.58547
G1 X187.789 Y148.37 E12.63614
G1 X186.547 Y150.585 E12.68682
G1 X185.38 Y152.815 E12.73705
G1 X184.261 Y155.103 E12.78788
G1 X183.213 Y157.416 E12.83855
G1 X182.211 Y159.801 E12.89018
G1 X181.302 Y162.15 E12.94044
G1 X180.457 Y164.526 E12.99077
G1 X179.681 Y166.927 E13.04112
G1 X178.962 Y169.381 E13.09215
G1 X178.318 Y171.839 E13.14286
G1 X177.736 Y174.352 E13.19434
G1 X177.241 Y176.799 E13.24416
G1 X176.81 Y179.288 E13.29457
G1 X176.446 Y181.812 E13.34546
G1 X176.128 Y184.588 E13.40122
G1 X176.001 Y185.865 E13.42683
G1 X175.871 Y186.758 E13.44484
G1 X175.663 Y187.637 E13.46286
G1 X175.379 Y188.494 E13.48088
G1 X175.019 Y189.323 E13.49891
G1 X174.588 Y190.116 E13.51693
G1 X174.088 Y190.868 E13.53495
G1 X173.523 Y191.573 E13.55298
G1 X172.899 Y192.226 E13.571
G1 X172.219 Y192.82 E13.58902
G1 X171.489 Y193.352 E13.60705
G1 X170.715 Y193.818 E13.62508
G1 X169.903 Y194.213 E13.6431
G1 X169.059 Y194.534 E13.66112
G1 X168.19 Y194.78 E13.67914
G1 X167.303 Y194.948 E13.69715
G1 X166.138 Y195.048 E13.72049
G1 X165.531 Y195.061 E13.73261
G1 X154.423 Y195.06 E13.95428
G1 X153.722 Y195.05 E13.96827
G1 X152.82 Y194.997 E13.9863
G1 X151.927 Y194.865 E14.00431
G1 X151.048 Y194.654 E14.02235
G1 X150.192 Y194.366 E14.04038
G1 X149.365 Y194.004 E14.05839
G1 X148.573 Y193.57 E14.07642
G1 X147.823 Y193.067 E14.09444
G1 X147.12 Y192.5 E14.11246
G1 X146.47 Y191.874 E14.13047
G1 X145.938 Y191.268 E14.14656
G1 X145.399 Y190.602 E14.16366
G1 X144.647 Y189.646 E14.18793
G1 X143.036 Y187.712 E14.23816
G1 X141.334 Y185.782 E14.28952
G1 X139.604 Y183.929 E14.34011
G1 X137.842 Y182.143 E14.39017
G1 X135.993 Y180.375 E14.44123
G1 X134.563 Y179.078 E14.47975
G1 X133.881 Y178.435 E14.49846
G1 X132.404 Y176.96 E14.54011
G1 X131.933 Y176.474 E14.55362
G1 X131.334 Y175.798 E14.57164
G1 X130.797 Y175.072 E14.58966
G1 X130.326 Y174.301 E14.60769
G1 X129.926 Y173.492 E14.6257
G1 X129.598 Y172.65 E14.64374
G1 X129.346 Y171.783 E14.66176
G1 X129.172 Y170.897 E14.67977
G1 X129.06 Y169.558 E14.70659
G1 X129.048 Y168.818 E14.72136
G1 X129.048 Y157.105 E14.9551
G1 X129.011 Y154.499 E15.00711
G1 X128.902 Y151.933 E15.05837
G1 X128.724 Y149.426 E15.10852
G1 X128.473 Y146.885 E15.15948
G1 X128.148 Y144.346 E15.21056
G1 X128.003 Y143.36 E15.23045
G1 X127.912 Y142.461 E15.24848
G1 X127.898 Y141.636 E15.26495
G1 X127.959 Y139.07 E15.31617
G1 X127.95 Y136.539 E15.36668
G1 X127.899 Y135.161 E15.3942
G1 X127.9 Y134.994 E15.39753
G1 X127.848 Y133.05 E15.43634
G1 X127.849 Y121.927 E15.65831
G1 X127.858 Y121.253 E15.67176
G1 X127.91 Y120.351 E15.68979
G1 X128.042 Y119.458 E15.70781
G1 X128.252 Y118.579 E15.72584
G1 X128.539 Y117.723 E15.74386
G1 X128.9 Y116.896 E15.76187
G1 X129.333 Y116.103 E15.7799
G1 X129.835 Y115.352 E15.79792
G1 X130.401 Y114.649 E15.81593
G1 F2700 E10.81593
G0 F6000 X159.807 Y144.784
G1 F2700 E15.81593
G1 F1200 X159.926 Y144.793 E15.81832
G1 X159.953 Y144.878 E15.8201
G1 X159.927 Y144.927 E15.8212
G1 X159.799 Y144.93 E15.82376
G1 X159.769 Y144.846 E15.82554
G1 X159.807 Y144.784 E15.82699
G0 F6000 X159.511 Y144.51
G1 F1200 X159.772 Y144.373 E15.83287
G1 X159.957 Y144.375 E15.83656
G1 X160.135 Y144.448 E15.8404
G1 X160.317 Y144.667 E15.84608
G1 X160.347 Y144.958 E15.85192
G1 X160.274 Y145.134 E15.85573
G1 X160.054 Y145.318 E15.86145
G1 X159.951 Y145.349 E15.8636
G1 X159.667 Y145.317 E15.8693
G1 X159.513 Y145.213 E15.87301
G1 X159.373 Y144.951 E15.87894
