;FLAVOR:Marlin
;TIME:3162
;Filament used: 1.29996m
;Layer height: 0.2
;MINX:121.353
;MINY:121.244
;MINZ:0.2
;MAXX:178.707
;MAXY:178.756
;MAXZ:92.8
;Generated with Cura_SteamEngine 4.6.2
M140 S50
M105
M190 S50
M104 S200
M105
M109 S200
M82 ;absolute extrusion mode
M201 X500.00 Y500.00 Z100.00 E5000.00 ;Setup machine max acceleration
M203 X500.00 Y500.00 Z10.00 E50.00 ;Setup machine max feedrate
M204 P500.00 R1000.00 T500.00 ;Setup Print/Retract/Travel acceleration
M205 X8.00 Y8.00 Z0.40 E5.00 ;Setup Jerk
M220 S100 ;Reset Feedrate
M221 S100 ;Reset Flowrate

G28 ;Home

G92 E0 ;Reset Extruder
G1 Z2.0 F3000 ;Move Z Axis up
G1 X10.1 Y20 Z0.28 F5000.0 ;Move to start position
G1 X10.1 Y200.0 Z0.28 F1500.0 E15 ;Draw the first line
G1 X10.4 Y200.0 Z0.28 F5000.0 ;Move to side a little
G1 X10.4 Y20 Z0.28 F1500.0 E30 ;Draw the second line
G92 E0 ;Reset Extruder
G1 Z2.0 F3000 ;Move Z Axis up

G92 E0
G92 E0
G1 F2700 E-5
;LAYER_COUNT:464
;LAYER:0
M107
G0 F6000 X131.164 Y128.28 Z0.2
;TYPE:SKIRT
G1 F2700 E0
G1 F1200 X131.918 Y127.613 E0.03348
G1 X132.092 Y127.478 E0.04081
G1 X132.543 Y127.153 E0.0593
G1 X135.791 Y124.985 E0.18918
G1 X136.633 Y124.496 E0.22157
G1 X136.831 Y124.397 E0.22893
G1 X137.334 Y124.168 E0.24731
G1 X140.943 Y122.673 E0.37724
G1 X141.848 Y122.361 E0.40908
G1 X142.054 Y122.304 E0.41619
G1 X142.615 Y122.171 E0.43536
G1 X146.453 Y121.409 E0.56551
G1 X147.58 Y121.27 E0.60327
G1 X147.878 Y121.255 E0.6132
G1 X148.268 Y121.245 E0.62617
G1 X152.095 Y121.244 E0.75346
G1 X153.164 Y121.317 E0.7891
G1 X153.374 Y121.346 E0.79615
G1 X153.827 Y121.423 E0.81143
G1 X157.631 Y122.179 E0.94043
G1 X158.496 Y122.403 E0.97015
G1 X158.742 Y122.482 E0.97874
G1 X159.34 Y122.701 E0.99992
G1 X162.949 Y124.195 E1.12984
G1 X163.663 Y124.534 E1.15612
G1 X164.189 Y124.844 E1.17643
G1 X164.656 Y125.146 E1.19493
G1 X167.727 Y127.19 E1.31763
G1 X168.361 Y127.66 E1.34388
G1 X168.899 Y128.146 E1.36799
G1 X171.811 Y131.035 E1.50442
G1 X172.44 Y131.74 E1.53585
G1 X172.586 Y131.925 E1.54369
G1 X172.95 Y132.426 E1.56428
G1 X175.123 Y135.681 E1.69445
G1 X175.528 Y136.359 E1.72072
G1 X175.831 Y137 E1.7443
G1 X177.425 Y140.807 E1.88157
G1 X177.693 Y141.549 E1.90781
G1 X177.874 Y142.265 E1.93238
G1 X178.551 Y145.596 E2.04543
G1 X178.669 Y146.377 E2.0717
G1 X178.707 Y147.166 E2.09797
G1 X178.665 Y147.955 E2.12425
G1 X178.544 Y148.735 E2.15051
G1 X178.345 Y149.499 E2.17677
G1 X178.16 Y149.996 E2.1944
G1 X178.22 Y150.136 E2.19947
G1 X178.457 Y150.889 E2.22573
G1 X178.616 Y151.663 E2.25201
G1 X178.697 Y152.448 E2.27825
G1 X178.697 Y153.238 E2.30453
G1 X178.557 Y154.37 E2.34247
G1 X177.923 Y157.561 E2.45068
G1 X177.731 Y158.327 E2.47694
G1 X177.489 Y159.002 E2.50079
G1 X175.923 Y162.818 E2.63798
G1 X175.587 Y163.533 E2.66426
G1 X175.207 Y164.169 E2.6889
G1 X172.925 Y167.609 E2.8262
G1 X172.456 Y168.244 E2.85246
G1 X171.959 Y168.793 E2.87709
G1 X169.053 Y171.719 E3.01425
G1 X168.292 Y172.392 E3.04804
G1 X168.124 Y172.522 E3.0551
G1 X167.684 Y172.839 E3.07314
G1 X164.428 Y175.014 E3.20337
G1 X163.613 Y175.489 E3.23475
G1 X163.427 Y175.583 E3.24168
G1 X162.886 Y175.832 E3.26149
G1 X159.292 Y177.321 E3.39088
G1 X158.42 Y177.624 E3.42158
G1 X158.2 Y177.686 E3.42918
G1 X157.601 Y177.829 E3.44967
G1 X153.763 Y178.59 E3.5798
G1 X152.844 Y178.716 E3.61066
G1 X152.623 Y178.733 E3.61803
G1 X152.025 Y178.756 E3.63793
G1 X148.121 Y178.756 E3.76778
G1 X147.028 Y178.679 E3.80422
G1 X146.809 Y178.648 E3.81158
G1 X146.383 Y178.576 E3.82595
G1 X142.549 Y177.815 E3.95596
G1 X141.784 Y177.622 E3.9822
G1 X141.107 Y177.38 E4.00611
G1 X137.291 Y175.814 E4.1433
G1 X136.576 Y175.478 E4.16958
G1 X135.94 Y175.098 E4.19422
G1 X132.5 Y172.816 E4.33152
G1 X131.865 Y172.347 E4.35778
G1 X131.317 Y171.852 E4.38234
G1 X128.402 Y168.959 E4.51894
G1 X127.776 Y168.257 E4.55022
G1 X127.637 Y168.081 E4.55768
G1 X127.271 Y167.578 E4.57837
G1 X125.095 Y164.319 E4.7087
G1 X124.605 Y163.476 E4.74114
G1 X124.506 Y163.278 E4.7485
G1 X124.276 Y162.773 E4.76695
G1 X122.782 Y159.164 E4.89687
G1 X122.463 Y158.23 E4.9297
G1 X122.405 Y158.017 E4.93704
G1 X122.28 Y157.487 E4.95515
G1 X121.519 Y153.654 E5.08512
G1 X121.394 Y152.744 E5.11568
G1 X121.377 Y152.527 E5.12291
G1 X121.353 Y151.918 E5.14319
G1 X121.353 Y148.012 E5.2731
G1 X121.429 Y146.929 E5.30921
G1 X121.459 Y146.715 E5.3164
G1 X121.533 Y146.277 E5.33117
G1 X122.296 Y142.438 E5.46135
G1 X122.489 Y141.673 E5.4876
G1 X122.729 Y140.999 E5.51139
G1 X124.294 Y137.183 E5.64857
G1 X124.631 Y136.469 E5.67483
G1 X125.011 Y135.831 E5.69953
G1 X127.293 Y132.391 E5.83683
G1 X127.762 Y131.756 E5.86309
G1 X128.258 Y131.207 E5.8877
G1 X131.164 Y128.28 E6.02488
G0 F6000 X131.448 Y128.562
G1 F1200 X132.163 Y127.929 E6.05664
G1 X132.337 Y127.794 E6.06397
G1 X132.765 Y127.486 E6.0815
G1 X136.013 Y125.318 E6.21139
G1 X136.812 Y124.854 E6.24212
G1 X137.01 Y124.755 E6.24948
G1 X137.487 Y124.537 E6.26693
G1 X141.096 Y123.042 E6.39685
G1 X141.955 Y122.747 E6.42706
G1 X142.161 Y122.69 E6.43417
G1 X142.693 Y122.564 E6.45235
G1 X146.531 Y121.802 E6.5825
G1 X147.6 Y121.669 E6.61833
G1 X147.898 Y121.654 E6.62825
G1 X148.268 Y121.645 E6.64056
G1 X152.095 Y121.644 E6.76785
G1 X153.109 Y121.714 E6.80165
G1 X153.749 Y121.815 E6.8232
G1 X157.553 Y122.571 E6.9522
G1 X158.374 Y122.783 E6.9804
G1 X158.62 Y122.862 E6.989
G1 X159.187 Y123.071 E7.00909
G1 X162.796 Y124.565 E7.13901
G1 X163.491 Y124.895 E7.1646
G1 X163.973 Y125.181 E7.18324
G1 X164.434 Y125.479 E7.2015
G1 X167.505 Y127.523 E7.32419
G1 X168.122 Y127.982 E7.34977
G1 X168.617 Y128.43 E7.37198
G1 X171.529 Y131.319 E7.50841
G1 X172.126 Y131.988 E7.53823
G1 X172.272 Y132.173 E7.54607
G1 X172.618 Y132.648 E7.56561
G1 X174.791 Y135.903 E7.69578
G1 X175.184 Y136.564 E7.72136
G1 X175.462 Y137.154 E7.74305
G1 X177.056 Y140.961 E7.88033
G1 X177.316 Y141.685 E7.90591
G1 X177.482 Y142.345 E7.92855
G1 X178.159 Y145.676 E8.0416
G1 X178.273 Y146.437 E8.0672
G1 X178.307 Y147.205 E8.09277
G1 X178.261 Y147.973 E8.11835
G1 X178.136 Y148.732 E8.14394
G1 X177.933 Y149.474 E8.16953
G1 X177.728 Y150.001 E8.18833
G1 X177.924 Y150.501 E8.2062
G1 X178.13 Y151.243 E8.23181
G1 X178.258 Y152.001 E8.25738
G1 X178.307 Y152.769 E8.28297
G1 X178.275 Y153.537 E8.30854
G1 X178.165 Y154.292 E8.33391
G1 X177.531 Y157.483 E8.44212
G1 X177.342 Y158.229 E8.46772
G1 X177.119 Y158.85 E8.48966
G1 X175.553 Y162.666 E8.62686
G1 X175.224 Y163.362 E8.65246
G1 X174.874 Y163.948 E8.67516
G1 X172.592 Y167.388 E8.81246
G1 X172.134 Y168.006 E8.83805
G1 X171.676 Y168.512 E8.86075
G1 X168.77 Y171.438 E8.99791
G1 X168.048 Y172.075 E9.02993
G1 X167.88 Y172.205 E9.037
G1 X167.461 Y172.506 E9.05416
G1 X164.205 Y174.681 E9.18439
G1 X163.433 Y175.132 E9.21413
G1 X163.247 Y175.226 E9.22106
G1 X162.733 Y175.462 E9.23987
G1 X162.297 Y175.642 E9.25556
G1 X159.138 Y176.952 E9.3693
G1 X158.311 Y177.239 E9.39842
G1 X158.091 Y177.301 E9.40602
G1 X157.523 Y177.437 E9.42545
G1 X153.685 Y178.198 E9.55559
G1 X152.814 Y178.317 E9.58482
G1 X152.593 Y178.334 E9.5922
G1 X152.025 Y178.356 E9.6111
G1 X148.121 Y178.356 E9.74095
G1 X147.084 Y178.283 E9.77553
G1 X146.865 Y178.252 E9.78288
G1 X146.461 Y178.183 E9.79651
G1 X142.627 Y177.422 E9.92652
G1 X141.882 Y177.234 E9.95208
G1 X141.259 Y177.01 E9.9741
G1 X137.443 Y175.444 E10.11129
G1 X136.747 Y175.115 E10.13689
G1 X136.161 Y174.765 E10.1596
G1 X132.721 Y172.483 E10.2969
G1 X132.103 Y172.025 E10.32248
G1 X131.599 Y171.568 E10.34511
G1 X128.684 Y168.675 E10.48171
G1 X128.09 Y168.009 E10.51139
G1 X127.951 Y167.833 E10.51885
G1 X127.604 Y167.356 E10.53847
G1 X125.428 Y164.097 E10.6688
G1 X124.963 Y163.297 E10.69958
G1 X124.864 Y163.099 E10.70694
G1 X124.646 Y162.62 E10.72444
G1 X123.152 Y159.011 E10.85436
G1 X122.849 Y158.125 E10.8855
G1 X122.791 Y157.912 E10.89285
G1 X122.673 Y157.409 E10.91003
G1 X121.912 Y153.576 E11.04
G1 X121.793 Y152.713 E11.06898
G1 X121.776 Y152.496 E11.07622
G1 X121.753 Y151.918 E11.09546
G1 X121.753 Y148.012 E11.22537
G1 X121.825 Y146.985 E11.25961
G1 X121.855 Y146.771 E11.2668
G1 X121.925 Y146.355 E11.28083
G1 X122.688 Y142.516 E11.41102
G1 X122.877 Y141.771 E11.43658
G1 X123.099 Y141.151 E11.45848
G1 X124.664 Y137.335 E11.59566
G1 X124.993 Y136.64 E11.62124
G1 X125.344 Y136.052 E11.64401
G1 X127.626 Y132.612 E11.78131
G1 X128.084 Y131.994 E11.8069
G1 X128.542 Y131.489 E11.82957
G1 X131.448 Y128.562 E11.96676
G0 F6000 X131.731 Y128.844
G1 F1200 X132.408 Y128.245 E11.99682
G1 X132.582 Y128.11 E12.00415
G1 X132.987 Y127.819 E12.02074
G1 X136.235 Y125.651 E12.15062
G1 X136.991 Y125.212 E12.1797
G1 X137.189 Y125.113 E12.18706
G1 X137.64 Y124.907 E12.20355
G1 X141.249 Y123.412 E12.33348
G1 X142.061 Y123.133 E12.36203
G1 X142.267 Y123.076 E12.36914
G1 X142.771 Y122.956 E12.38637
G1 X146.609 Y122.194 E12.51652
G1 X147.62 Y122.069 E12.5504
G1 X147.918 Y122.054 E12.56032
G1 X148.268 Y122.045 E12.57197
G1 X152.095 Y122.044 E12.69926
G1 X153.055 Y122.11 E12.73126
G1 X153.671 Y122.207 E12.752
G1 X157.475 Y122.963 E12.881
G1 X158.251 Y123.164 E12.90766
G1 X158.497 Y123.243 E12.91625
G1 X159.034 Y123.44 E12.93528
G1 X162.643 Y124.934 E13.06519
G1 X163.318 Y125.257 E13.09008
G1 X163.756 Y125.517 E13.10702
G1 X164.213 Y125.812 E13.12511
G1 X167.284 Y127.856 E13.24781
G1 X167.883 Y128.303 E13.27267
G1 X168.335 Y128.714 E13.29299
G1 X171.247 Y131.603 E13.42942
G1 X171.812 Y132.235 E13.45762
G1 X171.958 Y132.42 E13.46546
G1 X172.285 Y132.87 E13.48396
G1 X174.458 Y136.125 E13.61413
G1 X174.839 Y136.769 E13.63901
G1 X175.093 Y137.308 E13.65883
G1 X176.687 Y141.115 E13.7961
G1 X176.938 Y141.82 E13.82099
G1 X177.09 Y142.425 E13.84174
G1 X177.767 Y145.756 E13.9548
G1 X177.876 Y146.496 E13.97967
G1 X177.906 Y147.243 E14.00454
G1 X177.856 Y147.99 E14.02944
G1 X177.727 Y148.726 E14.05429
G1 X177.52 Y149.445 E14.07918
G1 X177.293 Y150 E14.09912
G1 X177.369 Y150.158 E14.10495
G1 X177.619 Y150.863 E14.12983
G1 X177.793 Y151.591 E14.15473
G1 X177.888 Y152.333 E14.17961
G1 X177.903 Y153.081 E14.20449
G1 X177.839 Y153.826 E14.22936
G1 X177.773 Y154.214 E14.24245
G1 X177.139 Y157.405 E14.35066
G1 X176.954 Y158.13 E14.37555
G1 X176.749 Y158.699 E14.39566
G1 X175.183 Y162.515 E14.53286
G1 X174.862 Y163.19 E14.55772
G1 X174.54 Y163.727 E14.57854
G1 X172.258 Y167.167 E14.71584
G1 X171.812 Y167.767 E14.74071
G1 X171.392 Y168.23 E14.7615
G1 X168.486 Y171.156 E14.89866
G1 X167.803 Y171.759 E14.92896
G1 X167.635 Y171.889 E14.93603
G1 X167.239 Y172.174 E14.95225
G1 X163.983 Y174.349 E15.08249
G1 X163.252 Y174.775 E15.11063
G1 X163.066 Y174.869 E15.11756
G1 X162.58 Y175.092 E15.13535
G1 X162.144 Y175.272 E15.15103
G1 X158.985 Y176.582 E15.26478
G1 X158.203 Y176.854 E15.29232
G1 X157.983 Y176.916 E15.29992
G1 X157.445 Y177.044 E15.31831
G1 X153.607 Y177.805 E15.44845
G1 X152.783 Y177.918 E15.47611
G1 X152.562 Y177.935 E15.48349
G1 X152.025 Y177.956 E15.50136
G1 X148.121 Y177.956 E15.63121
G1 X147.14 Y177.887 E15.66392
G1 X146.921 Y177.856 E15.67127
G1 X146.539 Y177.791 E15.68416
G1 X142.705 Y177.03 E15.81417
G1 X141.98 Y176.845 E15.83905
G1 X141.41 Y176.64 E15.8592
G1 X137.594 Y175.074 E15.99639
G1 X136.919 Y174.753 E16.02125
G1 X136.382 Y174.431 E16.04208
G1 X132.942 Y172.149 E16.17938
G1 X132.342 Y171.703 E16.20425
G1 X131.881 Y171.284 E16.22497
G1 X128.966 Y168.391 E16.36156
G1 X128.404 Y167.762 E16.38962
G1 X128.265 Y167.586 E16.39708
G1 X127.936 Y167.134 E16.41567
G1 X125.76 Y163.875 E16.54601
G1 X125.321 Y163.118 E16.57511
G1 X125.222 Y162.92 E16.58247
G1 X125.015 Y162.467 E16.59904
G1 X123.521 Y158.858 E16.72895
G1 X123.235 Y158.02 E16.7584
G1 X123.177 Y157.807 E16.76575
G1 X123.065 Y157.331 E16.78201
G1 X122.304 Y153.498 E16.91199
G1 X122.191 Y152.682 E16.93938
G1 X122.174 Y152.465 E16.94662
G1 X122.153 Y151.918 E16.96483
G1 X122.153 Y148.012 E17.09474
G1 X122.221 Y147.04 E17.12715
G1 X122.251 Y146.826 E17.13434
G1 X122.317 Y146.433 E17.14759
G1 X123.08 Y142.594 E17.27778
G1 X123.265 Y141.87 E17.30263
G1 X123.469 Y141.303 E17.32267
G1 X125.034 Y137.487 E17.45985
G1 X125.355 Y136.811 E17.48474
G1 X125.678 Y136.273 E17.50561
G1 X127.96 Y132.833 E17.64292
G1 X128.406 Y132.233 E17.66778
G1 X128.825 Y131.771 E17.68853
G1 X131.731 Y128.844 E17.82571
G0 F6000 X132.015 Y129.126
G1 F1200 X132.653 Y128.561 E17.85405
G1 X132.827 Y128.426 E17.86138
G1 X133.209 Y128.152 E17.87701
G1 X136.457 Y125.984 E18.0069
G1 X137.169 Y125.57 E18.03429
G1 X137.367 Y125.471 E18.04165
G1 X137.793 Y125.276 E18.05724
G1 X141.402 Y123.781 E18.18716
G1 X142.168 Y123.518 E18.2141
G1 X142.374 Y123.461 E18.22121
G1 X142.849 Y123.348 E18.23745
G1 X146.687 Y122.586 E18.36759
G1 X147.64 Y122.468 E18.39953
G1 X147.938 Y122.453 E18.40946
G1 X148.268 Y122.445 E18.42044
G1 X152.095 Y122.444 E18.54772
G1 X153 Y122.506 E18.57789
G1 X153.21 Y122.535 E18.58494
G1 X153.594 Y122.6 E18.5979
G1 X157.398 Y123.356 E18.72689
G1 X158.129 Y123.545 E18.75201
G1 X158.375 Y123.624 E18.7606
G1 X158.881 Y123.81 E18.77853
G1 X162.49 Y125.304 E18.90845
G1 X163.145 Y125.618 E18.9326
G1 X163.54 Y125.853 E18.94789
G1 X163.991 Y126.145 E18.96576
G1 X167.062 Y128.189 E19.08846
G1 X167.644 Y128.624 E19.11263
G1 X168.053 Y128.998 E19.13106
G1 X170.965 Y131.887 E19.26749
G1 X171.498 Y132.483 E19.29409
G1 X171.644 Y132.668 E19.30192
G1 X171.952 Y133.092 E19.31935
G1 X174.125 Y136.347 E19.44952
G1 X174.495 Y136.973 E19.47371
G1 X174.724 Y137.463 E19.4917
G1 X176.318 Y141.27 E19.62897
G1 X176.561 Y141.954 E19.65311
G1 X176.698 Y142.504 E19.67197
G1 X177.375 Y145.835 E19.78502
G1 X177.48 Y146.554 E19.80919
G1 X177.506 Y147.28 E19.83335
G1 X177.451 Y148.004 E19.8575
G1 X177.318 Y148.718 E19.88166
G1 X177.107 Y149.413 E19.90581
G1 X176.854 Y150.004 E19.9272
G1 X177.085 Y150.528 E19.94624
G1 X177.303 Y151.221 E19.97041
G1 X177.443 Y151.933 E19.99454
G1 X177.504 Y152.657 E20.01871
G1 X177.485 Y153.383 E20.04286
G1 X177.38 Y154.136 E20.06815
G1 X176.746 Y157.327 E20.17636
G1 X176.566 Y158.031 E20.20052
G1 X176.379 Y158.547 E20.21878
G1 X174.813 Y162.363 E20.35597
G1 X174.501 Y163.018 E20.3801
G1 X174.207 Y163.505 E20.39902
G1 X171.925 Y166.945 E20.53632
G1 X171.491 Y167.528 E20.5605
G1 X171.108 Y167.948 E20.5794
G1 X168.202 Y170.874 E20.71656
G1 X167.558 Y171.443 E20.74515
G1 X167.39 Y171.573 E20.75221
G1 X167.017 Y171.841 E20.76749
G1 X163.761 Y174.016 E20.89772
G1 X163.072 Y174.418 E20.92425
G1 X162.886 Y174.512 E20.93118
G1 X162.428 Y174.723 E20.94796
G1 X161.992 Y174.903 E20.96365
G1 X158.832 Y176.213 E21.07742
G1 X158.094 Y176.469 E21.1034
G1 X157.874 Y176.531 E21.111
G1 X157.368 Y176.652 E21.12831
G1 X153.53 Y177.413 E21.25845
G1 X152.752 Y177.52 E21.28457
G1 X152.531 Y177.537 E21.29194
G1 X152.025 Y177.556 E21.30878
G1 X148.121 Y177.556 E21.43863
G1 X147.196 Y177.491 E21.46947
G1 X146.977 Y177.46 E21.47682
G1 X146.617 Y177.399 E21.48897
G1 X142.783 Y176.638 E21.61898
G1 X142.079 Y176.457 E21.64315
G1 X141.562 Y176.27 E21.66144
G1 X137.746 Y174.704 E21.79863
G1 X137.091 Y174.392 E21.82276
G1 X136.604 Y174.098 E21.84168
G1 X133.164 Y171.816 E21.97898
G1 X132.581 Y171.382 E22.00316
G1 X132.163 Y171.001 E22.02197
G1 X129.248 Y168.108 E22.15856
G1 X128.718 Y167.514 E22.18504
G1 X128.579 Y167.338 E22.1925
G1 X128.269 Y166.912 E22.21002
G1 X126.093 Y163.653 E22.34036
G1 X125.679 Y162.94 E22.36778
G1 X125.58 Y162.742 E22.37514
G1 X125.385 Y162.314 E22.39079
G1 X123.891 Y158.705 E22.5207
G1 X123.621 Y157.915 E22.54847
G1 X123.563 Y157.702 E22.55581
G1 X123.457 Y157.253 E22.57116
G1 X122.696 Y153.42 E22.70113
G1 X122.59 Y152.65 E22.72698
G1 X122.573 Y152.433 E22.73422
G1 X122.553 Y151.918 E22.75136
G1 X122.553 Y148.012 E22.88128
G1 X122.617 Y147.096 E22.91182
G1 X122.647 Y146.882 E22.91901
G1 X122.71 Y146.511 E22.93152
G1 X123.473 Y142.672 E23.06171
G1 X123.653 Y141.969 E23.08584
G1 X123.84 Y141.455 E23.10403
G1 X125.405 Y137.639 E23.24121
G1 X125.717 Y136.983 E23.26537
G1 X126.011 Y136.495 E23.28432
G1 X128.293 Y133.055 E23.42162
G1 X128.727 Y132.472 E23.4458
G1 X129.109 Y132.053 E23.46466
G1 X132.015 Y129.126 E23.60184
G0 F6000 X132.299 Y129.408
G1 F1200 X132.898 Y128.877 E23.62846
G1 X133.072 Y128.742 E23.63579
G1 X133.431 Y128.484 E23.65049
G1 X136.679 Y126.316 E23.78038
G1 X137.348 Y125.928 E23.8061
