;FLAVOR:Marlin
;TIME:5264
;Filament used: 3.83326m
;Layer height: 0.2
;MINX:118.852
;MINY:118.853
;MINZ:0.2
;MAXX:181.147
;MAXY:181.147
;MAXZ:63.6
;Generated with Cura_SteamEngine 4.6.2
M140 S50
M105
M190 S50
M104 S200
M105
M109 S200
M82 ;absolute extrusion mode
M201 X500.00 Y500.00 Z100.00 E5000.00 ;Setup machine max acceleration
M203 X500.00 Y500.00 Z10.00 E50.00 ;Setup machine max feedrate
M204 P500.00 R1000.00 T500.00 ;Setup Print/Retract/Travel acceleration
M205 X8.00 Y8.00 Z0.40 E5.00 ;Setup Jerk
M220 S100 ;Reset Feedrate
M221 S100 ;Reset Flowrate

G28 ;Home

G92 E0 ;Reset Extruder
G1 Z2.0 F3000 ;Move Z Axis up
G1 X10.1 Y20 Z0.28 F5000.0 ;Move to start position
G1 X10.1 Y200.0 Z0.28 F1500.0 E15 ;Draw the first line
G1 X10.4 Y200.0 Z0.28 F5000.0 ;Move to side a little
G1 X10.4 Y20 Z0.28 F1500.0 E30 ;Draw the second line
G92 E0 ;Reset Extruder
G1 Z2.0 F3000 ;Move Z Axis up

G92 E0
G92 E0
G1 F2700 E-5
;LAYER_COUNT:318
;LAYER:0
M107
G0 F6000 X151.819 Y119.822 Z0.2
;TYPE:SKIRT
G1 F2700 E0
G1 F1200 X152.699 Y120.025 E0.03004
G1 X153.558 Y120.305 E0.06009
G1 X154.389 Y120.659 E0.09013
G1 X155.184 Y121.086 E0.12014
G1 X155.939 Y121.582 E0.15019
G1 X156.648 Y122.142 E0.18024
G1 X157.304 Y122.763 E0.21028
G1 X157.971 Y123.525 E0.24397
G1 X158.486 Y124.18 E0.27168
G1 X159.344 Y125.307 E0.31879
G1 X160.93 Y127.271 E0.40275
G1 X162.594 Y129.217 E0.48791
G1 X164.287 Y131.088 E0.57184
G1 X166.056 Y132.936 E0.65692
G1 X167.873 Y134.728 E0.7418
G1 X169.725 Y136.456 E0.82605
G1 X171.598 Y138.104 E0.90903
G1 X173.586 Y139.757 E0.99502
G1 X175.62 Y141.355 E1.08105
G1 X176.304 Y141.872 E1.10957
G1 X176.999 Y142.449 E1.13961
G1 X177.641 Y143.084 E1.16965
G1 X178.224 Y143.774 E1.19969
G1 X178.743 Y144.513 E1.22973
G1 X179.195 Y145.295 E1.25977
G1 X179.576 Y146.113 E1.28978
G1 X179.884 Y146.963 E1.31985
G1 X180.115 Y147.836 E1.34989
G1 X180.267 Y148.726 E1.37992
G1 X180.341 Y149.626 E1.40995
G1 X180.313 Y150.853 E1.45077
G1 X180.24 Y151.715 E1.47955
G1 X179.983 Y154.333 E1.56704
G1 X179.903 Y155.045 E1.59087
G1 X179.763 Y155.937 E1.6209
G1 X179.58 Y156.688 E1.64661
G1 X179.35 Y157.493 E1.67446
G1 X178.575 Y160.053 E1.76342
G1 X178.346 Y160.774 E1.78858
G1 X178.035 Y161.621 E1.81859
G1 X177.699 Y162.344 E1.84511
G1 X177.298 Y163.124 E1.87428
G1 X176.046 Y165.468 E1.96266
G1 X175.692 Y166.109 E1.98702
G1 X175.221 Y166.88 E2.01707
G1 X174.757 Y167.513 E2.04317
G1 X174.257 Y168.142 E2.0699
G1 X172.54 Y170.237 E2.15999
G1 X172.076 Y170.789 E2.18397
G1 X171.465 Y171.454 E2.21401
G1 X170.873 Y171.999 E2.24077
G1 X170.241 Y172.534 E2.26831
G1 X168.179 Y174.228 E2.35707
G1 X167.58 Y174.707 E2.38258
G1 X166.851 Y175.239 E2.4126
G1 X166.152 Y175.664 E2.43981
G1 X165.435 Y176.06 E2.46705
G1 X163.036 Y177.345 E2.55757
G1 X162.436 Y177.656 E2.58004
G1 X161.617 Y178.035 E2.61006
G1 X160.902 Y178.298 E2.6354
G1 X160.092 Y178.56 E2.66371
G1 X157.476 Y179.355 E2.75465
G1 X156.796 Y179.552 E2.7782
G1 X155.919 Y179.765 E2.80822
G1 X155.2 Y179.879 E2.83243
G1 X154.414 Y179.974 E2.85876
G1 X153.869 Y180.03 E2.87698
G1 X151.587 Y180.252 E2.95324
G1 X150.884 Y180.311 E2.97671
G1 X149.982 Y180.347 E3.00673
G1 X149.485 Y180.332 E3.02327
G1 X148.977 Y180.301 E3.0402
G1 X148.549 Y180.265 E3.05448
G1 X147.622 Y180.177 E3.08545
G1 X145.651 Y179.983 E3.15132
G1 X144.948 Y179.903 E3.17486
G1 X144.056 Y179.761 E3.2049
G1 X143.385 Y179.6 E3.22785
G1 X142.636 Y179.391 E3.25371
G1 X142.064 Y179.22 E3.27357
G1 X139.897 Y178.56 E3.34891
G1 X139.213 Y178.342 E3.37279
G1 X138.365 Y178.03 E3.40284
G1 X137.694 Y177.72 E3.42743
G1 X137 Y177.366 E3.45334
G1 X136.473 Y177.087 E3.47317
G1 X134.472 Y176.015 E3.54868
G1 X133.919 Y175.709 E3.5697
G1 X132.855 Y175.031 E3.61166
G1 X132.664 Y174.892 E3.61952
G1 X132.249 Y174.573 E3.63693
G1 X131.207 Y173.73 E3.6815
G1 X129.719 Y172.506 E3.74559
G1 X129.195 Y172.064 E3.76839
G1 X128.532 Y171.451 E3.79842
G1 X128.128 Y171.02 E3.81807
G1 X127.837 Y170.688 E3.83275
G1 X127.106 Y169.812 E3.8707
G1 X125.74 Y168.143 E3.94243
G1 X125.281 Y167.567 E3.96693
G1 X124.75 Y166.836 E3.99698
G1 X124.447 Y166.349 E4.01606
G1 X124.192 Y165.902 E4.03317
G1 X123.59 Y164.794 E4.07512
G1 X122.629 Y162.992 E4.14304
G1 X122.321 Y162.391 E4.1655
G1 X121.945 Y161.57 E4.19554
G1 X121.718 Y160.954 E4.21737
G1 X121.469 Y160.196 E4.24391
G1 X121.231 Y159.419 E4.27094
G1 X120.63 Y157.433 E4.33995
G1 X120.439 Y156.768 E4.36296
G1 X120.229 Y155.89 E4.39299
G1 X120.118 Y155.183 E4.41679
G1 X120.031 Y154.46 E4.44101
G1 X119.958 Y153.753 E4.46465
G1 X119.748 Y151.595 E4.53676
G1 X119.688 Y150.887 E4.5604
G1 X119.652 Y149.985 E4.59042
G1 X119.67 Y149.422 E4.60916
G1 X119.683 Y149.203 E4.61645
G1 X119.708 Y148.875 E4.62739
G1 X119.826 Y147.591 E4.67028
G1 X120.017 Y145.651 E4.73512
G1 X120.097 Y144.948 E4.75865
G1 X120.239 Y144.056 E4.78869
G1 X120.4 Y143.385 E4.81164
G1 X120.609 Y142.637 E4.83747
G1 X120.771 Y142.095 E4.85629
G1 X121.44 Y139.896 E4.93274
G1 X121.659 Y139.209 E4.95672
G1 X121.971 Y138.362 E4.98674
G1 X122.285 Y137.684 E5.01159
G1 X122.634 Y137 E5.03713
G1 X122.913 Y136.473 E5.05697
G1 X123.987 Y134.467 E5.13265
G1 X124.294 Y133.913 E5.15371
G1 X124.969 Y132.855 E5.19545
G1 X125.108 Y132.664 E5.20331
G1 X125.428 Y132.247 E5.22079
G1 X126.304 Y131.166 E5.26707
G1 X127.521 Y129.687 E5.33078
G1 X127.957 Y129.173 E5.35319
G1 X128.571 Y128.511 E5.38322
G1 X128.961 Y128.145 E5.40101
G1 X129.312 Y127.837 E5.41655
G1 X130.189 Y127.106 E5.45452
G1 X131.856 Y125.741 E5.52618
G1 X132.432 Y125.282 E5.55068
G1 X133.163 Y124.751 E5.58073
G1 X133.634 Y124.457 E5.59919
G1 X133.815 Y124.351 E5.60617
G1 X134.098 Y124.192 E5.61697
G1 X135.268 Y123.556 E5.66126
G1 X137.001 Y122.633 E5.72656
G1 X137.601 Y122.325 E5.749
G1 X138.422 Y121.948 E5.77904
G1 X139.039 Y121.721 E5.80091
G1 X139.804 Y121.469 E5.8277
G1 X140.581 Y121.231 E5.85473
G1 X142.561 Y120.632 E5.92353
G1 X143.221 Y120.442 E5.94637
G1 X144.099 Y120.231 E5.97641
G1 X144.805 Y120.119 E6.00018
G1 X145.547 Y120.031 E6.02503
G1 X146.13 Y119.971 E6.04453
G1 X148.415 Y119.748 E6.12089
G1 X149.12 Y119.689 E6.14442
G1 X150.023 Y119.653 E6.17448
G1 X150.925 Y119.698 E6.20451
G1 X151.819 Y119.822 E6.23453
G0 F6000 X151.839 Y119.419
G1 F1200 X152.737 Y119.62 E6.26514
G1 X153.615 Y119.899 E6.29578
G1 X154.465 Y120.253 E6.32641
G1 X155.281 Y120.679 E6.35702
G1 X156.057 Y121.174 E6.38764
G1 X156.787 Y121.735 E6.41826
G1 X157.466 Y122.357 E6.44888
G1 X158.285 Y123.277 E6.48985
G1 X158.805 Y123.937 E6.5178
G1 X159.659 Y125.058 E6.56467
G1 X161.262 Y127.044 E6.64956
G1 X162.894 Y128.953 E6.73309
G1 X164.574 Y130.809 E6.81635
G1 X166.343 Y132.657 E6.90144
G1 X168.162 Y134.451 E6.98642
G1 X169.977 Y136.145 E7.06899
G1 X171.893 Y137.83 E7.15385
G1 X173.804 Y139.419 E7.23652
G1 X175.886 Y141.055 E7.32459
G1 X176.545 Y141.553 E7.35206
G1 X177.255 Y142.14 E7.3827
G1 X177.91 Y142.787 E7.41332
G1 X178.507 Y143.487 E7.44392
G1 X179.041 Y144.237 E7.47454
G1 X179.508 Y145.031 E7.50518
G1 X179.905 Y145.862 E7.53581
G1 X180.227 Y146.724 E7.56642
G1 X180.474 Y147.611 E7.59704
G1 X180.643 Y148.516 E7.62766
G1 X180.733 Y149.432 E7.65827
G1 X180.742 Y150.353 E7.68891
G1 X180.711 Y150.886 E7.70667
G1 X180.638 Y151.753 E7.7356
G1 X180.381 Y154.378 E7.82333
G1 X180.301 Y155.09 E7.84716
G1 X180.158 Y155.999 E7.87777
G1 X179.965 Y156.797 E7.90507
G1 X179.733 Y157.609 E7.93316
G1 X178.957 Y160.174 E8.02229
G1 X178.728 Y160.895 E8.04745
G1 X178.411 Y161.759 E8.07806
G1 X178.055 Y162.527 E8.10622
G1 X177.651 Y163.312 E8.13558
G1 X176.396 Y165.661 E8.22416
G1 X176.042 Y166.302 E8.24851
G1 X175.562 Y167.088 E8.27915
G1 X175.071 Y167.761 E8.30685
G1 X174.566 Y168.396 E8.33384
G1 X172.846 Y170.495 E8.4241
G1 X172.382 Y171.047 E8.44808
G1 X171.76 Y171.725 E8.47868
G1 X171.132 Y172.303 E8.50707
G1 X170.495 Y172.843 E8.53485
G1 X168.429 Y174.541 E8.62379
G1 X167.83 Y175.02 E8.6493
G1 X167.087 Y175.563 E8.67991
G1 X166.346 Y176.014 E8.70876
G1 X165.624 Y176.412 E8.73618
G1 X163.22 Y177.7 E8.82689
G1 X162.62 Y178.011 E8.84937
G1 X161.785 Y178.399 E8.87999
G1 X161.026 Y178.679 E8.9069
G1 X160.208 Y178.943 E8.93549
G1 X157.588 Y179.739 E9.02657
G1 X156.908 Y179.936 E9.05011
G1 X156.013 Y180.154 E9.08075
G1 X155.248 Y180.276 E9.10652
G1 X154.454 Y180.371 E9.13311
G1 X153.909 Y180.427 E9.15134
G1 X151.62 Y180.651 E9.22783
G1 X150.917 Y180.71 E9.2513
G1 X149.998 Y180.747 E9.28189
G1 X149.464 Y180.732 E9.29965
G1 X148.945 Y180.7 E9.31695
G1 X148.511 Y180.664 E9.33143
G1 X147.584 Y180.576 E9.3624
G1 X145.605 Y180.38 E9.42855
G1 X144.902 Y180.3 E9.45208
G1 X143.993 Y180.156 E9.48269
G1 X143.279 Y179.985 E9.50711
G1 X142.522 Y179.774 E9.53325
G1 X141.95 Y179.603 E9.55311
G1 X139.775 Y178.941 E9.62872
G1 X139.091 Y178.723 E9.6526
G1 X138.227 Y178.406 E9.68321
G1 X137.513 Y178.077 E9.70936
G1 X136.812 Y177.719 E9.73554
G1 X136.285 Y177.44 E9.75537
G1 X134.278 Y176.365 E9.8311
G1 X133.725 Y176.059 E9.85212
G1 X132.62 Y175.355 E9.89569
G1 X132.429 Y175.216 E9.90355
G1 X131.997 Y174.884 E9.92167
G1 X130.953 Y174.039 E9.96634
G1 X129.461 Y172.811 E10.03062
G1 X128.937 Y172.369 E10.05342
G1 X128.26 Y171.746 E10.08402
G1 X127.828 Y171.285 E10.10503
G1 X127.295 Y170.665 E10.13222
G1 X126.797 Y170.065 E10.15816
G1 X125.427 Y168.392 E10.23008
G1 X124.968 Y167.816 E10.25458
G1 X124.426 Y167.072 E10.28519
G1 X124.102 Y166.551 E10.3056
G1 X123.84 Y166.093 E10.32315
G1 X123.237 Y164.982 E10.36519
G1 X122.273 Y163.174 E10.43334
G1 X121.965 Y162.573 E10.4558
G1 X121.581 Y161.737 E10.4864
G1 X121.338 Y161.08 E10.5097
G1 X121.087 Y160.313 E10.53654
G1 X120.849 Y159.536 E10.56357
G1 X120.246 Y157.543 E10.63282
G1 X120.055 Y156.878 E10.65583
G1 X119.839 Y155.983 E10.68646
G1 X119.72 Y155.231 E10.71178
G1 X119.633 Y154.501 E10.73623
G1 X119.56 Y153.792 E10.75994
G1 X119.35 Y151.629 E10.83222
G1 X119.29 Y150.921 E10.85585
G1 X119.252 Y150.001 E10.88648
G1 X119.271 Y149.398 E10.90654
G1 X119.309 Y148.838 E10.92521
G1 X119.428 Y147.552 E10.96816
G1 X119.62 Y145.605 E11.03324
G1 X119.7 Y144.902 E11.05677
G1 X119.844 Y143.993 E11.08738
G1 X120.015 Y143.279 E11.1118
G1 X120.226 Y142.522 E11.13794
G1 X120.388 Y141.98 E11.15675
G1 X121.059 Y139.775 E11.23341
G1 X121.278 Y139.088 E11.25739
G1 X121.595 Y138.223 E11.28803
G1 X121.928 Y137.503 E11.31442
G1 X122.281 Y136.812 E11.34023
G1 X122.56 Y136.285 E11.36006
G1 X123.637 Y134.273 E11.43596
G1 X123.944 Y133.719 E11.45703
G1 X124.645 Y132.62 E11.50039
G1 X124.784 Y132.429 E11.50824
G1 X125.117 Y131.995 E11.52644
G1 X125.995 Y130.912 E11.57281
G1 X127.215 Y129.428 E11.6367
G1 X127.651 Y128.914 E11.65912
G1 X128.277 Y128.239 E11.68974
G1 X128.696 Y127.846 E11.70885
G1 X129.054 Y127.532 E11.72469
G1 X129.335 Y127.295 E11.73691
G1 X129.936 Y126.796 E11.76289
G1 X131.607 Y125.428 E11.83472
G1 X132.183 Y124.969 E11.85922
G1 X132.927 Y124.427 E11.88983
G1 X133.432 Y124.112 E11.90963
G1 X133.613 Y124.006 E11.91661
G1 X133.907 Y123.84 E11.92784
G1 X135.079 Y123.203 E11.9722
G1 X136.818 Y122.277 E12.03773
G1 X137.418 Y121.969 E12.06016
G1 X138.255 Y121.584 E12.0908
G1 X138.913 Y121.341 E12.11413
G1 X139.687 Y121.087 E12.14123
G1 X140.464 Y120.849 E12.16826
G1 X142.451 Y120.248 E12.2373
G1 X143.111 Y120.058 E12.26014
G1 X144.006 Y119.842 E12.29077
G1 X144.757 Y119.722 E12.31606
G1 X145.506 Y119.633 E12.34115
G1 X146.14 Y119.568 E12.36235
G1 X148.382 Y119.349 E12.43727
G1 X149.087 Y119.29 E12.4608
G1 X150.007 Y119.253 E12.49143
G1 X150.927 Y119.296 E12.52206
G1 X151.839 Y119.419 E12.55267
G0 F6000 X151.858 Y119.016
G1 F1200 X152.774 Y119.216 E12.58385
G1 X153.67 Y119.494 E12.61505
G1 X154.539 Y119.846 E12.64624
G1 X155.375 Y120.272 E12.67744
G1 X156.171 Y120.767 E12.70862
G1 X156.923 Y121.328 E12.73983
G1 X157.624 Y121.951 E12.77102
G1 X158.269 Y122.632 E12.80222
G1 X158.599 Y123.029 E12.81939
G1 X159.123 Y123.695 E12.84757
G1 X159.972 Y124.81 E12.89418
G1 X161.561 Y126.778 E12.97831
G1 X163.178 Y128.67 E13.06109
G1 X164.893 Y130.564 E13.14607
G1 X166.63 Y132.378 E13.22961
G1 X168.415 Y134.139 E13.31301
G1 X170.251 Y135.852 E13.39652
G1 X172.147 Y137.521 E13.48054
G1 X174.083 Y139.13 E13.56426
G1 X176.091 Y140.707 E13.64918
G1 X176.787 Y141.234 E13.67822
G1 X177.51 Y141.832 E13.70943
G1 X178.179 Y142.488 E13.74059
G1 X178.79 Y143.2 E13.7718
G1 X179.339 Y143.961 E13.80301
G1 X179.82 Y144.766 E13.8342
G1 X180.231 Y145.609 E13.86539
G1 X180.569 Y146.484 E13.89659
G1 X180.831 Y147.384 E13.92776
G1 X181.016 Y148.304 E13.95898
G1 X181.121 Y149.236 E13.99017
G1 X181.147 Y150.173 E14.02135
G1 X181.11 Y150.92 E14.04622
G1 X181.036 Y151.792 E14.07533
G1 X180.778 Y154.422 E14.16322
G1 X180.698 Y155.134 E14.18705
G1 X180.554 Y156.061 E14.21826
G1 X180.35 Y156.906 E14.24717
G1 X180.116 Y157.725 E14.2755
G1 X179.338 Y160.295 E14.36481
G1 X179.109 Y161.016 E14.38997
G1 X178.787 Y161.897 E14.42117
G1 X178.411 Y162.71 E14.45096
G1 X178.004 Y163.5 E14.48052
G1 X176.746 Y165.855 E14.56932
G1 X176.392 Y166.496 E14.59367
G1 X175.904 Y167.297 E14.62487
G1 X175.384 Y168.01 E14.65422
G1 X174.876 Y168.649 E14.68137
G1 X173.152 Y170.752 E14.77182
G1 X172.688 Y171.304 E14.7958
G1 X172.055 Y171.996 E14.827
G1 X171.391 Y172.608 E14.85703
G1 X170.749 Y173.152 E14.88502
G1 X168.679 Y174.853 E14.97413
G1 X168.08 Y175.332 E14.99964
G1 X167.323 Y175.886 E15.03084
G1 X166.54 Y176.364 E15.06135
G1 X165.813 Y176.765 E15.08897
G1 X163.404 Y178.055 E15.17985
G1 X162.804 Y178.366 E15.20233
G1 X161.954 Y178.762 E15.23352
G1 X161.15 Y179.059 E15.26203
G1 X160.325 Y179.325 E15.29086
G1 X157.699 Y180.124 E15.38215
G1 X157.019 Y180.321 E15.4057
G1 X156.108 Y180.543 E15.43689
G1 X155.297 Y180.673 E15.4642
G1 X154.495 Y180.769 E15.49107
G1 X153.899 Y180.831 E15.511
G1 X151.654 Y181.049 E15.58602
G1 X150.951 Y181.108 E15.60948
G1 X150.014 Y181.147 E15.64068
G1 X149.443 Y181.131 E15.65967
G1 X148.912 Y181.099 E15.67737
G1 X148.473 Y181.062 E15.69202
G1 X147.546 Y180.974 E15.72299
G1 X145.56 Y180.777 E15.78937
G1 X144.857 Y180.697 E15.8129
G1 X143.931 Y180.552 E15.84408
G1 X143.172 Y180.371 E15.87003
G1 X142.407 Y180.157 E15.89645
G1 X141.835 Y179.986 E15.91631
G1 X139.654 Y179.323 E15.99213
G1 X138.97 Y179.105 E16.016
G1 X138.089 Y178.782 E16.04721
G1 X137.332 Y178.433 E16.07494
G1 X136.625 Y178.073 E16.10133
G1 X136.098 Y177.794 E16.12116
G1 X134.084 Y176.715 E16.19715
G1 X133.531 Y176.409 E16.21817
G1 X132.384 Y175.678 E16.26341
G1 X132.193 Y175.539 E16.27127
G1 X131.746 Y175.195 E16.29003
G1 X130.699 Y174.348 E16.33482
G1 X129.204 Y173.117 E16.39923
G1 X128.68 Y172.675 E16.42203
G1 X127.989 Y172.04 E16.45324
G1 X127.528 Y171.55 E16.47562
G1 X126.987 Y170.921 E16.50322
G1 X126.487 Y170.319 E16.52924
G1 X125.114 Y168.641 E16.60136
G1 X124.655 Y168.065 E16.62585
G1 X124.103 Y167.308 E16.65701
G1 X123.756 Y166.753 E16.67878
G1 X123.651 Y166.573 E16.68571
G1 X123.489 Y166.284 E16.69673
G1 X122.884 Y165.171 E16.73887
G1 X121.917 Y163.357 E16.80724
G1 X121.609 Y162.756 E16.8297
G1 X121.217 Y161.904 E16.86089
G1 X120.959 Y161.206 E16.88564
G1 X120.704 Y160.431 E16.91278
G1 X120.466 Y159.654 E16.93981
G1 X119.861 Y157.654 E17.00931
G1 X119.67 Y156.989 E17.03232
G1 X119.45 Y156.077 E17.06352
G1 X119.323 Y155.279 E17.0904
G1 X119.236 Y154.542 E17.11508
G1 X119.162 Y153.831 E17.13886
G1 X118.951 Y151.663 E17.2113
G1 X118.891 Y150.955 E17.23494
G1 X118.852 Y150.018 E17.26613
G1 X118.871 Y149.374 E17.28756
G1 X118.884 Y149.155 E17.29485
G1 X118.911 Y148.801 E17.30666
G1 X119.03 Y147.513 E17.34968
G1 X119.223 Y145.56 E17.41496
G1 X119.303 Y144.857 E17.43849
G1 X119.448 Y143.931 E17.46966
G1 X119.629 Y143.172 E17.49562
G1 X119.843 Y142.408 E17.52201
G1 X120.005 Y141.866 E17.54082
G1 X120.678 Y139.653 E17.61775
G1 X120.897 Y138.966 E17.64174
G1 X121.219 Y138.085 E17.67293
G1 X121.572 Y137.322 E17.7009
G1 X121.927 Y136.625 E17.72691
G1 X122.206 Y136.098 E17.74675
G1 X123.288 Y134.079 E17.82293
G1 X123.595 Y133.525 E17.844
G1 X124.322 Y132.384 E17.889
G1 X124.461 Y132.193 E17.89685
G1 X124.806 Y131.744 E17.91569
G1 X125.685 Y130.658 E17.96216
G1 X126.91 Y129.169 E18.02629
G1 X127.346 Y128.655 E18.04871
G1 X127.983 Y127.967 E18.07989
G1 X128.43 Y127.547 E18.10029
G1 X128.796 Y127.226 E18.11648
