;FLAVOR:Marlin
;TIME:30650
;Filament used: 23.8452m
;Layer height: 0.2
;MINX:81.5
;MINY:106.5
;MINZ:0.2
;MAXX:218.5
;MAXY:193.5
;MAXZ:55
;TARGET_MACHINE.NAME:Creality Ender-3 Max
;Generated with Cura_SteamEngine 5.9.1
M140 S60
M105
M190 S60
M104 S200
M105
M109 S200
M82 ;absolute extrusion mode
; Ender 3 Max Custom Start G-code
G92 E0 ; Reset Extruder
G28 ; Home all axes
G1 Z2.0 F3000 ; Move Z Axis up little to prevent scratching of Heat Bed
G1 X0.1 Y20 Z0.3 F5000.0 ; Move to start position
G1 X0.1 Y200.0 Z0.3 F1500.0 E15 ; Draw the first line
G1 X0.4 Y200.0 Z0.3 F5000.0 ; Move to side a little
G1 X0.4 Y20 Z0.3 F1500.0 E30 ; Draw the second line
G92 E0 ; Reset Extruder
G1 Z2.0 F3000 ; Move Z Axis up little to prevent scratching of Heat Bed
G1 X5 Y20 Z0.3 F5000.0 ; Move over to prevent blob squish
G92 E0
G92 E0
G1 F1500 E-6.5
;LAYER_COUNT:275
;LAYER:0
M107
G0 F6000 X144.298 Y193.342 Z0.2
;TYPE:SKIRT
G1 F1500 E0
G1 F1200 X142.827 Y193.485 E0.04916
G1 X142.17 Y193.5 E0.07101
G1 X93.064 Y193.499 E1.70429
G1 X92.331 Y193.488 E1.72867
G1 X91.359 Y193.431 E1.76105
G1 X90.396 Y193.285 E1.79345
G1 X89.45 Y193.056 E1.82582
G1 X88.526 Y192.744 E1.85826
G1 X87.636 Y192.352 E1.8906
G1 X86.813 Y191.901 E1.92182
G1 X85.974 Y191.34 E1.95539
G1 X85.27 Y190.774 E1.98543
G1 X84.517 Y190.049 E2.0202
G1 X83.88 Y189.313 E2.05257
G1 X83.35 Y188.582 E2.0826
G1 X82.814 Y187.685 E2.11736
G1 X82.392 Y186.807 E2.14976
G1 X82.05 Y185.895 E2.18215
G1 X81.79 Y184.957 E2.21453
G1 X81.612 Y183.988 E2.2473
G1 X81.514 Y182.809 E2.28665
G1 X81.5 Y182.158 E2.3083
G1 X81.501 Y118.025 E4.44138
G1 X81.512 Y117.325 E4.46466
G1 X81.57 Y116.352 E4.49708
G1 X81.716 Y115.389 E4.52948
G1 X81.946 Y114.443 E4.56186
G1 X82.259 Y113.52 E4.59427
G1 X82.651 Y112.63 E4.62662
G1 X83.121 Y111.777 E4.65901
G1 X83.664 Y110.969 E4.69139
G1 X84.231 Y110.265 E4.72145
G1 X84.956 Y109.513 E4.7562
G1 X85.692 Y108.876 E4.78857
G1 X86.424 Y108.346 E4.81863
G1 X87.321 Y107.811 E4.85337
G1 X88.199 Y107.39 E4.88575
G1 X89.112 Y107.048 E4.91818
G1 X90.049 Y106.789 E4.95051
G1 X91.016 Y106.611 E4.98322
G1 X92.155 Y106.515 E5.02123
G1 X92.812 Y106.5 E5.04309
G1 X206.804 Y106.5 E8.83448
G1 X207.684 Y106.513 E8.86375
G1 X208.656 Y106.572 E8.89614
G1 X209.619 Y106.718 E8.92854
G1 X210.566 Y106.949 E8.96096
G1 X211.454 Y107.249 E8.99213
G1 X212.346 Y107.639 E9.02451
G1 X213.229 Y108.126 E9.05805
G1 X213.98 Y108.628 E9.0881
G1 X214.795 Y109.286 E9.12294
G1 X215.493 Y109.964 E9.1553
G1 X216.129 Y110.701 E9.18768
G1 X216.699 Y111.491 E9.22008
G1 X217.161 Y112.267 E9.25012
G1 X217.615 Y113.209 E9.2849
G1 X217.944 Y114.087 E9.31608
G1 X218.213 Y115.059 E9.34963
G1 X218.39 Y116.025 E9.38229
G1 X218.485 Y117.155 E9.42001
G1 X218.5 Y117.83 E9.44246
G1 X218.499 Y151.9 E10.57564
G1 X218.488 Y152.663 E10.60102
G1 X218.431 Y153.636 E10.63343
G1 X218.286 Y154.599 E10.66583
G1 X218.057 Y155.545 E10.6982
G1 X217.746 Y156.469 E10.73062
G1 X217.354 Y157.36 E10.763
G1 X216.886 Y158.212 E10.79533
G1 X216.364 Y158.993 E10.82658
G1 X215.731 Y159.778 E10.86012
G1 X215.106 Y160.429 E10.89013
G1 X214.317 Y161.117 E10.92495
G1 X213.557 Y161.667 E10.95615
G1 X212.69 Y162.184 E10.98973
G1 X211.812 Y162.606 E11.02213
G1 X210.901 Y162.948 E11.05449
G1 X209.963 Y163.209 E11.08688
G1 X209.076 Y163.375 E11.11689
G1 X208.435 Y163.451 E11.13836
G1 X206.563 Y163.598 E11.20081
G1 X204.025 Y163.851 E11.28565
G1 X201.514 Y164.173 E11.36985
G1 X199.062 Y164.558 E11.4524
G1 X196.576 Y165.022 E11.53651
G1 X194.101 Y165.556 E11.62072
G1 X191.722 Y166.14 E11.7022
G1 X189.223 Y166.828 E11.78841
G1 X186.847 Y167.558 E11.87108
G1 X184.451 Y168.367 E11.95519
G1 X182.084 Y169.242 E12.03913
G1 X179.759 Y170.178 E12.12249
G1 X177.429 Y171.193 E12.20702
G1 X175.172 Y172.251 E12.28992
G1 X172.918 Y173.388 E12.37389
G1 X170.694 Y174.59 E12.45797
G1 X168.552 Y175.829 E12.54028
G1 X166.382 Y177.164 E12.62501
G1 X164.258 Y178.556 E12.70948
G1 X162.22 Y179.977 E12.79211
G1 X160.2 Y181.472 E12.8757
G1 X158.231 Y183.016 E12.95892
G1 X156.258 Y184.655 E13.04423
G1 X154.39 Y186.3 E13.12702
G1 X152.542 Y188.02 E13.21099
G1 X150.216 Y190.325 E13.3199
G1 X149.494 Y190.977 E13.35226
G1 X148.774 Y191.523 E13.38231
G1 X147.888 Y192.077 E13.41707
G1 X147.018 Y192.516 E13.44948
G1 X146.114 Y192.877 E13.48185
G1 X145.182 Y193.157 E13.51422
G1 X144.298 Y193.342 E13.54426
G0 F6000 X145.1 Y192.765
G1 F1200 X144.216 Y192.95 E13.5743
G1 X142.818 Y193.085 E13.62101
G1 X142.17 Y193.1 E13.64257
G1 X93.07 Y193.099 E15.27564
G1 X92.354 Y193.089 E15.29946
G1 X91.418 Y193.035 E15.33064
G1 X90.489 Y192.896 E15.36189
G1 X89.577 Y192.677 E15.39308
G1 X88.687 Y192.378 E15.42431
G1 X87.828 Y192.001 E15.45551
G1 X87.005 Y191.55 E15.48672
G1 X86.225 Y191.028 E15.51794
G1 X85.521 Y190.462 E15.54798
G1 X84.819 Y189.787 E15.58038
G1 X84.204 Y189.078 E15.61159
G1 X83.674 Y188.347 E15.64162
G1 X83.174 Y187.511 E15.67402
G1 X82.766 Y186.666 E15.70523
G1 X82.435 Y185.788 E15.73644
G1 X82.183 Y184.884 E15.76765
G1 X82.011 Y183.955 E15.79908
G1 X81.913 Y182.776 E15.83843
G1 X81.9 Y182.158 E15.85899
G1 X81.901 Y118.031 E17.99186
G1 X81.911 Y117.348 E18.01458
G1 X81.966 Y116.411 E18.0458
G1 X82.105 Y115.483 E18.07701
G1 X82.325 Y114.571 E18.10821
G1 X82.625 Y113.681 E18.13945
G1 X83.002 Y112.822 E18.17065
G1 X83.453 Y112 E18.20183
G1 X83.976 Y111.22 E18.23307
G1 X84.543 Y110.516 E18.26313
G1 X85.218 Y109.815 E18.2955
G1 X85.927 Y109.2 E18.32672
G1 X86.659 Y108.67 E18.35678
G1 X87.495 Y108.171 E18.38916
G1 X88.34 Y107.764 E18.42035
G1 X89.219 Y107.433 E18.45159
G1 X90.122 Y107.182 E18.48277
G1 X91.05 Y107.01 E18.51416
G1 X92.189 Y106.914 E18.55217
G1 X92.821 Y106.9 E18.5732
G1 X206.798 Y106.9 E22.36409
G1 X207.66 Y106.912 E22.39276
G1 X208.597 Y106.968 E22.42398
G1 X209.525 Y107.107 E22.45519
G1 X210.438 Y107.328 E22.48644
G1 X211.294 Y107.616 E22.51648
G1 X212.186 Y108.006 E22.54886
G1 X213.007 Y108.459 E22.58004
G1 X213.758 Y108.961 E22.61009
G1 X214.517 Y109.573 E22.64252
G1 X215.191 Y110.226 E22.67373
G1 X215.805 Y110.935 E22.70492
G1 X216.355 Y111.696 E22.73615
G1 X216.817 Y112.472 E22.76619
G1 X217.24 Y113.349 E22.79858
G1 X217.569 Y114.227 E22.82976
G1 X217.82 Y115.132 E22.861
G1 X217.991 Y116.059 E22.89235
G1 X218.086 Y117.189 E22.93007
G1 X218.1 Y117.83 E22.95139
G1 X218.099 Y151.895 E24.0844
G1 X218.089 Y152.64 E24.10918
G1 X218.035 Y153.577 E24.1404
G1 X217.897 Y154.506 E24.17163
G1 X217.678 Y155.418 E24.20283
G1 X217.38 Y156.308 E24.23405
G1 X217.003 Y157.168 E24.26528
G1 X216.553 Y157.99 E24.29645
G1 X216.031 Y158.771 E24.32769
G1 X215.442 Y159.501 E24.35889
G1 X214.817 Y160.152 E24.3889
G1 X214.082 Y160.793 E24.42134
G1 X213.322 Y161.343 E24.45254
G1 X212.516 Y161.824 E24.48376
G1 X211.671 Y162.232 E24.51497
G1 X210.793 Y162.563 E24.54618
G1 X209.889 Y162.816 E24.5774
G1 X209.002 Y162.982 E24.60742
G1 X208.401 Y163.052 E24.62754
G1 X207.409 Y163.136 E24.66065
G1 X206.531 Y163.199 E24.68993
G1 X203.974 Y163.454 E24.7754
G1 X201.463 Y163.776 E24.8596
G1 X199 Y164.163 E24.94252
G1 X196.492 Y164.631 E25.02738
G1 X194.017 Y165.165 E25.11159
G1 X191.616 Y165.754 E25.19382
G1 X189.117 Y166.443 E25.28004
G1 X186.719 Y167.179 E25.36347
G1 X184.323 Y167.988 E25.44758
G1 X181.945 Y168.867 E25.5319
G1 X179.599 Y169.811 E25.61601
G1 X177.269 Y170.826 E25.70054
G1 X175.002 Y171.889 E25.78382
G1 X172.728 Y173.036 E25.86853
G1 X170.504 Y174.238 E25.95261
G1 X168.342 Y175.488 E26.03567
G1 X166.172 Y176.823 E26.12041
G1 X164.039 Y178.221 E26.20523
G1 X161.982 Y179.655 E26.28863
G1 X159.962 Y181.15 E26.37222
G1 X157.975 Y182.708 E26.4562
G1 X156.002 Y184.348 E26.54153
G1 X154.117 Y186.007 E26.62505
G1 X152.269 Y187.727 E26.70902
G1 X149.948 Y190.028 E26.81772
G1 X149.252 Y190.658 E26.84895
G1 X148.532 Y191.204 E26.879
G1 X147.707 Y191.72 E26.91137
G1 X146.869 Y192.145 E26.94262
G1 X145.998 Y192.494 E26.97383
G1 X145.1 Y192.765 E27.00502
G0 F6000 X145.018 Y192.373
G1 F1200 X144.134 Y192.558 E27.03506
G1 X142.809 Y192.685 E27.07933
G1 X142.17 Y192.7 E27.10059
G1 X93.075 Y192.699 E28.7335
G1 X92.377 Y192.69 E28.75672
G1 X91.476 Y192.639 E28.78673
G1 X90.582 Y192.507 E28.81679
G1 X89.704 Y192.298 E28.84681
G1 X88.847 Y192.011 E28.87687
G1 X88.02 Y191.65 E28.90688
G1 X87.227 Y191.217 E28.93693
G1 X86.476 Y190.716 E28.96696
G1 X85.772 Y190.15 E28.997
G1 X85.121 Y189.524 E29.02704
G1 X84.528 Y188.843 E29.05707
G1 X83.998 Y188.112 E29.08711
G1 X83.534 Y187.337 E29.11715
G1 X83.14 Y186.524 E29.1472
G1 X82.82 Y185.68 E29.17722
G1 X82.576 Y184.81 E29.20727
G1 X82.41 Y183.922 E29.23732
G1 X82.313 Y182.767 E29.27587
G1 X82.3 Y182.158 E29.29613
G1 X82.301 Y118.036 E31.42884
G1 X82.31 Y117.371 E31.45096
G1 X82.362 Y116.469 E31.48101
G1 X82.494 Y115.576 E31.51103
G1 X82.704 Y114.698 E31.54106
G1 X82.991 Y113.841 E31.57112
G1 X83.353 Y113.014 E31.60114
G1 X83.786 Y112.222 E31.63116
G1 X84.288 Y111.471 E31.66121
G1 X84.855 Y110.767 E31.69127
G1 X85.481 Y110.117 E31.72129
G1 X86.162 Y109.524 E31.75132
G1 X86.894 Y108.994 E31.78138
G1 X87.669 Y108.531 E31.81141
G1 X88.482 Y108.138 E31.84144
G1 X89.327 Y107.818 E31.87149
G1 X90.196 Y107.575 E31.90151
G1 X91.084 Y107.409 E31.93155
G1 X92.223 Y107.313 E31.96957
G1 X92.83 Y107.3 E31.98976
G1 X206.793 Y107.3 E35.78019
G1 X207.637 Y107.311 E35.80826
G1 X208.539 Y107.364 E35.83831
G1 X209.432 Y107.496 E35.86834
G1 X210.31 Y107.707 E35.89837
G1 X211.166 Y107.995 E35.92841
G1 X211.993 Y108.357 E35.95844
G1 X212.785 Y108.792 E35.98849
G1 X213.536 Y109.294 E36.01854
G1 X214.239 Y109.861 E36.04858
G1 X214.889 Y110.488 E36.07861
G1 X215.481 Y111.17 E36.10865
G1 X216.011 Y111.901 E36.13868
G1 X216.473 Y112.677 E36.16872
G1 X216.866 Y113.49 E36.19875
G1 X217.184 Y114.335 E36.22878
G1 X217.427 Y115.205 E36.25883
G1 X217.592 Y116.093 E36.28887
G1 X217.687 Y117.223 E36.32658
G1 X217.7 Y117.83 E36.34678
G1 X217.699 Y151.89 E37.47962
G1 X217.69 Y152.617 E37.5038
G1 X217.639 Y153.519 E37.53385
G1 X217.508 Y154.413 E37.5639
G1 X217.299 Y155.291 E37.59392
G1 X217.013 Y156.148 E37.62397
G1 X216.652 Y156.976 E37.65401
G1 X216.22 Y157.768 E37.68402
G1 X215.719 Y158.52 E37.71407
G1 X215.153 Y159.224 E37.74411
G1 X214.528 Y159.875 E37.77413
G1 X213.847 Y160.469 E37.80419
G1 X213.116 Y161 E37.83424
G1 X212.342 Y161.464 E37.86425
G1 X211.529 Y161.858 E37.8943
G1 X210.685 Y162.178 E37.92432
G1 X209.815 Y162.423 E37.95438
G1 X208.928 Y162.589 E37.9844
G1 X208.367 Y162.653 E38.00318
G1 X207.38 Y162.737 E38.03612
G1 X206.499 Y162.8 E38.0655
G1 X203.923 Y163.057 E38.1516
G1 X201.412 Y163.379 E38.2358
G1 X198.938 Y163.768 E38.3191
G1 X196.408 Y164.24 E38.4047
G1 X193.933 Y164.774 E38.48891
G1 X191.51 Y165.368 E38.57189
G1 X189.011 Y166.058 E38.65812
G1 X186.591 Y166.8 E38.7423
G1 X184.195 Y167.609 E38.82642
G1 X181.806 Y168.492 E38.91113
G1 X179.439 Y169.444 E38.99598
G1 X177.109 Y170.459 E39.08051
G1 X174.832 Y171.527 E39.16416
G1 X172.538 Y172.684 E39.24962
G1 X170.314 Y173.886 E39.3337
G1 X168.132 Y175.147 E39.41752
G1 X165.962 Y176.482 E39.50226
G1 X163.82 Y177.886 E39.58744
G1 X161.744 Y179.333 E39.67161
G1 X159.724 Y180.828 E39.75519
G1 X157.719 Y182.4 E39.83993
G1 X155.746 Y184.041 E39.92529
G1 X153.844 Y185.714 E40.00954
G1 X151.996 Y187.434 E40.09351
G1 X149.679 Y189.732 E40.20205
G1 X149.01 Y190.339 E40.23209
G1 X148.29 Y190.885 E40.26214
G1 X147.525 Y191.364 E40.29217
G1 X146.72 Y191.774 E40.32221
G1 X145.882 Y192.111 E40.35225
G1 X145.018 Y192.373 E40.38228
G1 F1500 E33.88228
G0 F6000 X187.9 Y142.9
G1 F1500 E40.38228
G1 F1200 X112.1 Y142.9 E42.9034
G1 X112.1 Y127.1 E43.42891
G1 X187.9 Y127.1 E45.95003
G1 X187.9 Y142.9 E46.47554
G0 F6000 X188.3 Y143.3
G1 F1200 X111.7 Y143.3 E49.02327
G1 X111.7 Y126.7 E49.57538
G1 X188.3 Y126.7 E52.12311
G1 X188.3 Y143.3 E52.67523
G0 F6000 X188.7 Y143.7
G1 F1200 X111.3 Y143.7 E55.24956
G1 X111.3 Y126.3 E55.82829
G1 X188.7 Y126.3 E58.40262
G1 X188.7 Y143.7 E58.98135
G0 F6000 X189.1 Y144.1
G1 F1200 X110.9 Y144.1 E61.58229
G1 X110.9 Y125.9 E62.18763
G1 X189.1 Y125.9 E64.78857
G1 X189.1 Y144.1 E65.3939
G0 F6000 X189.5 Y144.5
G1 F1200 X110.5 Y144.5 E68.02145
G1 X110.5 Y125.5 E68.6534
G1 X189.5 Y125.5 E71.28095
G1 X189.5 Y144.5 E71.91289
G0 F6000 X189.9 Y144.9
G1 F1200 X110.1 Y144.9 E74.56705
G1 X110.1 Y125.1 E75.2256
G1 X189.9 Y125.1 E77.87976
G1 X189.9 Y144.9 E78.53831
G0 F6000 X190.3 Y145.3
G1 F1200 X109.7 Y145.3 E81.21908
G1 X109.7 Y124.7 E81.90423
G1 X190.3 Y124.7 E84.585
G1 X190.3 Y145.3 E85.27016
G0 F6000 X190.7 Y145.7
G1 F1200 X109.3 Y145.7 E87.97754
G1 X109.3 Y124.3 E88.6893
G1 X190.7 Y124.3 E91.39668
G1 X190.7 Y145.7 E92.10844
G0 F6000 X191.1 Y146.1
G1 F1200 X108.9 Y146.1 E94.84243
G1 X108.9 Y123.9 E95.5808
G1 X191.1 Y123.9 E98.31479
G1 X191.1 Y146.1 E99.05316
G0 F6000 X191.5 Y146.5
G1 F1200 X108.5 Y146.5 E101.81375
G1 X108.5 Y123.5 E102.57873
G1 X191.5 Y123.5 E105.33933
G1 X191.5 Y146.5 E106.10431
G1 F1500 E99.60431
G0 F6000 X188.365 Y142.5
G0 X187.5 Y142.5
;TYPE:SUPPORT
G1 F1500 E106.10431
G1 F1200 X112.5 Y142.5 E108.59882
G1 X112.5 Y127.5 E109.09772
G1 X187.5 Y127.5 E111.59223
G1 X187.5 Y142.5 E112.09113
G1 F1500 E105.59113
G0 F6000 X187.42 Y140
G1 F1500 E112.09113
G1 F1200 X112.58 Y140 E114.58032
G1 F1500 E108.08032
G0 F6000 X111.635 Y140
G0 X111.635 Y136
G0 X112.58 Y136
G1 F1500 E114.58032
G1 F1200 X187.42 Y136 E117.06951
G1 F1500 E110.56951
G0 F6000 X188.365 Y136
G0 X188.365 Y132
G0 X187.42 Y132
G1 F1500 E117.06951
G1 F1200 X112.58 Y132 E119.5587
G1 F1500 E113.0587
G0 F6000 X111.635 Y132
G0 X111.635 Y128
G0 X112.58 Y128
G1 F1500 E119.5587
G1 F1200 X187.42 Y128 E122.04789
G1 F1500 E115.54789
G0 F6000 X188.365 Y128
G0 X188.353 Y126.647
G0 X184 Y126.635
G0 X184 Y127.58
G1 F1500 E122.04789
G1 F1200 X184 Y142.42 E122.54147
G1 F1500 E116.04147
G0 F6000 X184 Y143.365
G0 X180 Y143.365
G0 X180 Y142.42
G1 F1500 E122.54147
G1 F1200 X180 Y127.58 E123.03505
G1 F1500 E116.53505
G0 F6000 X180 Y126.635
G0 X176 Y126.635
G0 X176 Y127.58
G1 F1500 E123.03505
G1 F1200 X176 Y142.42 E123.52863
G1 F1500 E117.02863
G0 F6000 X176 Y143.365
G0 X172 Y143.365
G0 X172 Y142.42
G1 F1500 E123.52863
G1 F1200 X172 Y127.58 E124.02221
G1 F1500 E117.52221
G0 F6000 X172 Y126.635
G0 X168 Y126.635
G0 X168 Y127.58
G1 F1500 E124.02221
G1 F1200 X168 Y142.42 E124.51579
G1 F1500 E118.01579
G0 F6000 X168 Y143.365
G0 X164 Y143.365
G0 X164 Y142.42
G1 F1500 E124.51579
G1 F1200 X164 Y127.58 E125.00937
G1 F1500 E118.50937
G0 F6000 X164 Y126.635
G0 X160 Y126.635
G0 X160 Y127.58
G1 F1500 E125.00937
G1 F1200 X160 Y142.42 E125.50295
G1 F1500 E119.00295
G0 F6000 X160 Y143.365
G0 X156 Y143.365
G0 X156 Y142.42
G1 F1500 E125.50295
G1 F1200 X156 Y127.58 E125.99653
G1 F1500 E119.49653
G0 F6000 X156 Y126.635
G0 X152 Y126.635
G0 X152 Y127.58
G1 F1500 E125.99653
G1 F1200 X152 Y142.42 E126.49011
G1 F1500 E119.99011
G0 F6000 X152 Y143.365
G0 X148 Y143.365
G0 X148 Y142.42
G1 F1500 E126.49011
G1 F1200 X148 Y127.58 E126.98369
G1 F1500 E120.48369
G0 F6000 X148 Y126.635
G0 X144 Y126.635
G0 X144 Y127.58
G1 F1500 E126.98369
G1 F1200 X144 Y142.42 E127.47727
G1 F1500 E120.97727
G0 F6000 X144 Y143.365
G0 X140 Y143.365
G0 X140 Y142.42
G1 F1500 E127.47727
G1 F1200 X140 Y127.58 E127.97085
G1 F1500 E121.47085
G0 F6000 X140 Y126.635
G0 X136 Y126.635
G0 X136 Y127.58
G1 F1500 E127.97085
G1 F1200 X136 Y142.42 E128.46443
G1 F1500 E121.96443
G0 F6000 X136 Y143.365
G0 X132 Y143.365
G0 X132 Y142.42
G1 F1500 E128.46443
G1 F1200 X132 Y127.58 E128.95801
G1 F1500 E122.45801
G0 F6000 X132 Y126.635
G0 X128 Y126.635
G0 X128 Y127.58
G1 F1500 E128.95801
G1 F1200 X128 Y142.42 E129.45159
G1 F1500 E122.95159
G0 F6000 X128 Y143.365
G0 X124 Y143.365
G0 X124 Y142.42
G1 F1500 E129.45159
G1 F1200 X124 Y127.58 E129.94517
G1 F1500 E123.44517
G0 F6000 X124 Y126.635
G0 X120 Y126.635
G0 X120 Y127.58
G1 F1500 E129.94517
G1 F1200 X120 Y142.42 E130.43875
G1 F1500 E123.93875
G0 F6000 X120 Y143.365
G0 X116 Y143.365
G0 X116 Y142.42
G1 F1500 E130.43875
G1 F1200 X116 Y127.58 E130.93233
G1 F1500 E124.43233
;MESH:adaptateur soudeuse v1.stl
G0 F6000 X116 Y126.635
G0 X111.647 Y126.647
G0 X111.647 Y143.353
G0 X116 Y146.835
G0 X150 Y148.1
;TYPE:WALL-INNER
G1 F1500 E130.93233
G1 F1200 X107.467 Y148.1 E132.34699
G1 X107.201 Y148.021 E132.35622
