;FLAVOR:Marlin
;TIME:27799
;Filament used: 22.5494m
;Layer height: 0.2
;MINX:81.5
;MINY:105.5
;MINZ:0.2
;MAXX:218.5
;MAXY:193.5
;MAXZ:55
;TARGET_MACHINE.NAME:Creality Ender-3 Max
;Generated with Cura_SteamEngine 5.9.1
M140 S60
M105
M190 S60
M104 S200
M105
M109 S200
M82 ;absolute extrusion mode
; Ender 3 Max Custom Start G-code
G92 E0 ; Reset Extruder
G28 ; Home all axes
G1 Z2.0 F3000 ; Move Z Axis up little to prevent scratching of Heat Bed
G1 X0.1 Y20 Z0.3 F5000.0 ; Move to start position
G1 X0.1 Y200.0 Z0.3 F1500.0 E15 ; Draw the first line
G1 X0.4 Y200.0 Z0.3 F5000.0 ; Move to side a little
G1 X0.4 Y20 Z0.3 F1500.0 E30 ; Draw the second line
G92 E0 ; Reset Extruder
G1 Z2.0 F3000 ; Move Z Axis up little to prevent scratching of Heat Bed
G1 X5 Y20 Z0.3 F5000.0 ; Move over to prevent blob squish
G92 E0
G92 E0
G1 F1500 E-6.5
;LAYER_COUNT:275
;LAYER:0
M107
G0 F6000 X144.298 Y193.342 Z0.2
;TYPE:SKIRT
G1 F1500 E0
G1 F1200 X142.827 Y193.485 E0.04916
G1 X142.17 Y193.5 E0.07101
G1 X93.064 Y193.499 E1.70429
G1 X92.331 Y193.488 E1.72867
G1 X91.359 Y193.431 E1.76105
G1 X90.396 Y193.285 E1.79345
G1 X89.45 Y193.056 E1.82582
G1 X88.526 Y192.744 E1.85826
G1 X87.636 Y192.352 E1.8906
G1 X86.813 Y191.901 E1.92182
G1 X85.974 Y191.34 E1.95539
G1 X85.27 Y190.774 E1.98543
G1 X84.517 Y190.049 E2.0202
G1 X83.88 Y189.313 E2.05257
G1 X83.35 Y188.582 E2.0826
G1 X82.814 Y187.685 E2.11736
G1 X82.392 Y186.807 E2.14976
G1 X82.05 Y185.895 E2.18215
G1 X81.79 Y184.957 E2.21453
G1 X81.612 Y183.988 E2.2473
G1 X81.514 Y182.809 E2.28665
G1 X81.5 Y182.158 E2.3083
G1 X81.501 Y118.025 E4.44138
G1 X81.512 Y117.325 E4.46466
G1 X81.57 Y116.352 E4.49708
G1 X81.716 Y115.389 E4.52948
G1 X81.946 Y114.443 E4.56186
G1 X82.259 Y113.52 E4.59427
G1 X82.651 Y112.63 E4.62662
G1 X83.121 Y111.777 E4.65901
G1 X83.664 Y110.969 E4.69139
G1 X84.231 Y110.265 E4.72145
G1 X84.956 Y109.513 E4.7562
G1 X85.692 Y108.876 E4.78857
G1 X86.424 Y108.346 E4.81863
G1 X87.321 Y107.811 E4.85337
G1 X88.199 Y107.39 E4.88575
G1 X89.112 Y107.048 E4.91818
G1 X90.049 Y106.789 E4.95051
G1 X91.016 Y106.611 E4.98322
G1 X92.155 Y106.515 E5.02123
G1 X92.812 Y106.5 E5.04309
G1 X94.179 Y106.5 E5.08856
G1 X96.763 Y106.463 E5.17451
G1 X99.328 Y106.354 E5.2599
G1 X101.807 Y106.178 E5.34256
G1 X104.288 Y105.933 E5.42548
G1 X106.957 Y105.593 E5.51497
G1 X108.006 Y105.513 E5.54996
G1 X108.63 Y105.5 E5.57072
G1 X191.161 Y105.501 E8.31571
G1 X191.924 Y105.514 E8.34109
G1 X193.108 Y105.6 E8.38058
G1 X194.694 Y105.803 E8.43376
G1 X197.266 Y106.088 E8.51983
G1 X199.803 Y106.297 E8.60449
G1 X202.243 Y106.427 E8.68576
G1 X205.94 Y106.5 E8.80875
G1 X207.593 Y106.512 E8.86373
G1 X208.564 Y106.564 E8.89607
G1 X209.529 Y106.701 E8.92849
G1 X210.477 Y106.924 E8.96088
G1 X211.4 Y107.229 E8.99321
G1 X212.23 Y107.584 E9.02324
G1 X213.152 Y108.08 E9.05806
G1 X213.965 Y108.618 E9.09048
G1 X214.724 Y109.225 E9.12281
G1 X215.43 Y109.897 E9.15523
G1 X216.072 Y110.629 E9.18761
G1 X216.647 Y111.415 E9.22
G1 X217.15 Y112.249 E9.25239
G1 X217.578 Y113.125 E9.28482
G1 X217.925 Y114.033 E9.31715
G1 X218.193 Y114.968 E9.3495
G1 X218.366 Y115.854 E9.37953
G1 X218.487 Y117.206 E9.42468
G1 X218.5 Y117.83 E9.44543
G1 X218.499 Y151.9 E10.57861
G1 X218.488 Y152.663 E10.60399
G1 X218.431 Y153.636 E10.63641
G1 X218.286 Y154.599 E10.6688
G1 X218.057 Y155.545 E10.70117
G1 X217.746 Y156.469 E10.73359
G1 X217.354 Y157.36 E10.76597
G1 X216.886 Y158.212 E10.7983
G1 X216.364 Y158.993 E10.82955
G1 X215.731 Y159.778 E10.86309
G1 X215.106 Y160.429 E10.8931
G1 X214.317 Y161.117 E10.92792
G1 X213.557 Y161.667 E10.95912
G1 X212.69 Y162.184 E10.9927
G1 X211.812 Y162.606 E11.0251
G1 X210.901 Y162.948 E11.05746
G1 X209.963 Y163.209 E11.08985
G1 X209.076 Y163.375 E11.11986
G1 X208.435 Y163.451 E11.14133
G1 X206.563 Y163.598 E11.20378
G1 X204.025 Y163.851 E11.28862
G1 X201.514 Y164.173 E11.37282
G1 X199.062 Y164.558 E11.45537
G1 X196.576 Y165.022 E11.53948
G1 X194.101 Y165.556 E11.62369
G1 X191.722 Y166.14 E11.70517
G1 X189.223 Y166.828 E11.79138
G1 X186.847 Y167.558 E11.87405
G1 X184.451 Y168.367 E11.95816
G1 X182.084 Y169.242 E12.0421
G1 X179.759 Y170.178 E12.12546
G1 X177.429 Y171.193 E12.20999
G1 X175.172 Y172.251 E12.29289
G1 X172.918 Y173.388 E12.37686
G1 X170.694 Y174.59 E12.46094
G1 X168.552 Y175.829 E12.54325
G1 X166.382 Y177.164 E12.62799
G1 X164.258 Y178.556 E12.71245
G1 X162.22 Y179.977 E12.79508
G1 X160.2 Y181.472 E12.87867
G1 X158.231 Y183.016 E12.96189
G1 X156.258 Y184.655 E13.0472
G1 X154.39 Y186.3 E13.12999
G1 X152.542 Y188.02 E13.21396
G1 X150.216 Y190.325 E13.32287
G1 X149.494 Y190.977 E13.35523
G1 X148.774 Y191.523 E13.38528
G1 X147.888 Y192.077 E13.42004
G1 X147.018 Y192.516 E13.45245
G1 X146.114 Y192.877 E13.48482
G1 X145.182 Y193.157 E13.51719
G1 X144.298 Y193.342 E13.54723
G0 F6000 X145.1 Y192.765
G1 F1200 X144.216 Y192.95 E13.57727
G1 X142.818 Y193.085 E13.62398
G1 X142.17 Y193.1 E13.64554
G1 X93.07 Y193.099 E15.27861
G1 X92.354 Y193.089 E15.30243
G1 X91.418 Y193.035 E15.33361
G1 X90.489 Y192.896 E15.36486
G1 X89.577 Y192.677 E15.39605
G1 X88.687 Y192.378 E15.42728
G1 X87.828 Y192.001 E15.45848
G1 X87.005 Y191.55 E15.48969
G1 X86.225 Y191.028 E15.52091
G1 X85.521 Y190.462 E15.55096
G1 X84.819 Y189.787 E15.58335
G1 X84.204 Y189.078 E15.61456
G1 X83.674 Y188.347 E15.64459
G1 X83.174 Y187.511 E15.67699
G1 X82.766 Y186.666 E15.7082
G1 X82.435 Y185.788 E15.73941
G1 X82.183 Y184.884 E15.77063
G1 X82.011 Y183.955 E15.80205
G1 X81.913 Y182.776 E15.8414
G1 X81.9 Y182.158 E15.86196
G1 X81.901 Y118.031 E17.99483
G1 X81.911 Y117.348 E18.01755
G1 X81.966 Y116.411 E18.04877
G1 X82.105 Y115.483 E18.07998
G1 X82.325 Y114.571 E18.11118
G1 X82.625 Y113.681 E18.14242
G1 X83.002 Y112.822 E18.17362
G1 X83.453 Y112 E18.2048
G1 X83.976 Y111.22 E18.23604
G1 X84.543 Y110.516 E18.2661
G1 X85.218 Y109.815 E18.29847
G1 X85.927 Y109.2 E18.32969
G1 X86.659 Y108.67 E18.35975
G1 X87.495 Y108.171 E18.39213
G1 X88.34 Y107.764 E18.42332
G1 X89.219 Y107.433 E18.45456
G1 X90.122 Y107.182 E18.48574
G1 X91.05 Y107.01 E18.51713
G1 X92.189 Y106.914 E18.55514
G1 X92.821 Y106.9 E18.57617
G1 X94.185 Y106.9 E18.62154
G1 X96.78 Y106.863 E18.70786
G1 X99.345 Y106.754 E18.79324
G1 X101.838 Y106.577 E18.87637
G1 X104.339 Y106.33 E18.95996
G1 X106.988 Y105.992 E19.04878
G1 X108.014 Y105.913 E19.08301
G1 X108.63 Y105.9 E19.1035
G1 X191.155 Y105.901 E21.84829
G1 X191.895 Y105.913 E21.87291
G1 X193.057 Y105.997 E21.91166
G1 X194.65 Y106.201 E21.96507
G1 X197.225 Y106.486 E22.05124
G1 X199.77 Y106.695 E22.13617
G1 X202.235 Y106.827 E22.21828
G1 X205.932 Y106.9 E22.34126
G1 X207.572 Y106.911 E22.39581
G1 X208.509 Y106.96 E22.42702
G1 X209.438 Y107.09 E22.45822
G1 X210.352 Y107.304 E22.48944
G1 X211.243 Y107.597 E22.52063
G1 X212.073 Y107.952 E22.55066
G1 X212.932 Y108.414 E22.5831
G1 X213.716 Y108.931 E22.61434
G1 X214.449 Y109.515 E22.64551
G1 X215.13 Y110.161 E22.67673
G1 X215.75 Y110.866 E22.70795
G1 X216.305 Y111.622 E22.73915
G1 X216.791 Y112.425 E22.77036
G1 X217.205 Y113.268 E22.8016
G1 X217.541 Y114.143 E22.83278
G1 X217.8 Y115.045 E22.86399
G1 X217.973 Y115.931 E22.89401
G1 X218.087 Y117.214 E22.93685
G1 X218.1 Y117.83 E22.95735
G1 X218.099 Y151.895 E24.09035
G1 X218.089 Y152.64 E24.11514
G1 X218.035 Y153.577 E24.14635
G1 X217.897 Y154.506 E24.17759
G1 X217.678 Y155.418 E24.20878
G1 X217.38 Y156.308 E24.24
G1 X217.003 Y157.168 E24.27123
G1 X216.553 Y157.99 E24.3024
G1 X216.031 Y158.771 E24.33365
G1 X215.442 Y159.501 E24.36484
G1 X214.817 Y160.152 E24.39486
G1 X214.082 Y160.793 E24.4273
G1 X213.322 Y161.343 E24.4585
G1 X212.516 Y161.824 E24.48972
G1 X211.671 Y162.232 E24.52093
G1 X210.793 Y162.563 E24.55214
G1 X209.889 Y162.816 E24.58336
G1 X209.002 Y162.982 E24.61337
G1 X208.401 Y163.052 E24.6335
G1 X207.409 Y163.136 E24.66661
G1 X206.531 Y163.199 E24.69589
G1 X203.974 Y163.454 E24.78135
G1 X201.463 Y163.776 E24.86555
G1 X199 Y164.163 E24.94848
G1 X196.492 Y164.631 E25.03333
G1 X194.017 Y165.165 E25.11755
G1 X191.616 Y165.754 E25.19977
G1 X189.117 Y166.443 E25.28599
G1 X186.719 Y167.179 E25.36942
G1 X184.323 Y167.988 E25.45353
G1 X181.945 Y168.867 E25.53786
G1 X179.599 Y169.811 E25.62196
G1 X177.269 Y170.826 E25.70649
G1 X175.002 Y171.889 E25.78977
G1 X172.728 Y173.036 E25.87448
G1 X170.504 Y174.238 E25.95857
G1 X168.342 Y175.488 E26.04163
G1 X166.172 Y176.823 E26.12637
G1 X164.039 Y178.221 E26.21119
G1 X161.982 Y179.655 E26.29459
G1 X159.962 Y181.15 E26.37817
G1 X157.975 Y182.708 E26.46216
G1 X156.002 Y184.348 E26.54749
G1 X154.117 Y186.007 E26.63101
G1 X152.269 Y187.727 E26.71498
G1 X149.948 Y190.028 E26.82368
G1 X149.252 Y190.658 E26.8549
G1 X148.532 Y191.204 E26.88496
G1 X147.707 Y191.72 E26.91732
G1 X146.869 Y192.145 E26.94857
G1 X145.998 Y192.494 E26.97978
G1 X145.1 Y192.765 E27.01098
G0 F6000 X145.018 Y192.373
G1 F1200 X144.134 Y192.558 E27.04102
G1 X142.809 Y192.685 E27.08529
G1 X142.17 Y192.7 E27.10655
G1 X93.075 Y192.699 E28.73946
G1 X92.377 Y192.69 E28.76267
G1 X91.476 Y192.639 E28.79269
G1 X90.582 Y192.507 E28.82275
G1 X89.704 Y192.298 E28.85276
G1 X88.847 Y192.011 E28.88282
G1 X88.02 Y191.65 E28.91284
G1 X87.227 Y191.217 E28.94289
G1 X86.476 Y190.716 E28.97291
G1 X85.772 Y190.15 E29.00296
G1 X85.121 Y189.524 E29.033
G1 X84.528 Y188.843 E29.06303
G1 X83.998 Y188.112 E29.09306
G1 X83.534 Y187.337 E29.12311
G1 X83.14 Y186.524 E29.15315
G1 X82.82 Y185.68 E29.18318
G1 X82.576 Y184.81 E29.21323
G1 X82.41 Y183.922 E29.24327
G1 X82.313 Y182.767 E29.28183
G1 X82.3 Y182.158 E29.30209
G1 X82.301 Y118.036 E31.43479
G1 X82.31 Y117.371 E31.45691
G1 X82.362 Y116.469 E31.48696
G1 X82.494 Y115.576 E31.51699
G1 X82.704 Y114.698 E31.54701
G1 X82.991 Y113.841 E31.57707
G1 X83.353 Y113.014 E31.6071
G1 X83.786 Y112.222 E31.63712
G1 X84.288 Y111.471 E31.66716
G1 X84.855 Y110.767 E31.69723
G1 X85.481 Y110.117 E31.72724
G1 X86.162 Y109.524 E31.75728
G1 X86.894 Y108.994 E31.78734
G1 X87.669 Y108.531 E31.81736
G1 X88.482 Y108.138 E31.8474
G1 X89.327 Y107.818 E31.87745
G1 X90.196 Y107.575 E31.90746
G1 X91.084 Y107.409 E31.93751
G1 X92.223 Y107.313 E31.97553
G1 X92.83 Y107.3 E31.99572
G1 X94.191 Y107.3 E32.04099
G1 X96.797 Y107.263 E32.12767
G1 X99.362 Y107.154 E32.21306
G1 X101.869 Y106.976 E32.29665
G1 X104.39 Y106.727 E32.38091
G1 X107.019 Y106.391 E32.46906
G1 X108.023 Y106.313 E32.50256
G1 X108.63 Y106.3 E32.52275
G1 X191.149 Y106.301 E35.26734
G1 X191.866 Y106.312 E35.29119
G1 X193.006 Y106.394 E35.32921
G1 X194.606 Y106.599 E35.38286
G1 X197.184 Y106.884 E35.46913
G1 X199.737 Y107.093 E35.55432
G1 X202.227 Y107.227 E35.63726
G1 X205.924 Y107.3 E35.76025
G1 X207.552 Y107.31 E35.8144
G1 X208.454 Y107.356 E35.84444
G1 X209.348 Y107.48 E35.87445
G1 X210.228 Y107.684 E35.9045
G1 X211.086 Y107.965 E35.93453
G1 X211.916 Y108.32 E35.96455
G1 X212.712 Y108.748 E35.99461
G1 X213.467 Y109.244 E36.02466
G1 X214.174 Y109.805 E36.05468
G1 X214.83 Y110.426 E36.08472
G1 X215.428 Y111.103 E36.11476
G1 X215.963 Y111.83 E36.14479
G1 X216.432 Y112.602 E36.17483
G1 X216.832 Y113.412 E36.20488
G1 X217.157 Y114.254 E36.2349
G1 X217.407 Y115.122 E36.26494
G1 X217.58 Y116.008 E36.29496
G1 X217.687 Y117.223 E36.33553
G1 X217.7 Y117.83 E36.35573
G1 X217.699 Y151.89 E37.48857
G1 X217.69 Y152.617 E37.51275
G1 X217.639 Y153.519 E37.5428
G1 X217.508 Y154.413 E37.57285
G1 X217.299 Y155.291 E37.60287
G1 X217.013 Y156.148 E37.63292
G1 X216.652 Y156.976 E37.66296
G1 X216.22 Y157.768 E37.69296
G1 X215.719 Y158.52 E37.72302
G1 X215.153 Y159.224 E37.75306
G1 X214.528 Y159.875 E37.78308
G1 X213.847 Y160.469 E37.81313
G1 X213.116 Y161 E37.84319
G1 X212.342 Y161.464 E37.8732
G1 X211.529 Y161.858 E37.90325
G1 X210.685 Y162.178 E37.93327
G1 X209.815 Y162.423 E37.96333
G1 X208.928 Y162.589 E37.99335
G1 X208.367 Y162.653 E38.01213
G1 X207.38 Y162.737 E38.04507
G1 X206.499 Y162.8 E38.07445
G1 X203.923 Y163.057 E38.16055
G1 X201.412 Y163.379 E38.24475
G1 X198.938 Y163.768 E38.32805
G1 X196.408 Y164.24 E38.41365
G1 X193.933 Y164.774 E38.49786
G1 X191.51 Y165.368 E38.58084
G1 X189.011 Y166.058 E38.66707
G1 X186.591 Y166.8 E38.75125
G1 X184.195 Y167.609 E38.83536
G1 X181.806 Y168.492 E38.92008
G1 X179.439 Y169.444 E39.00493
G1 X177.109 Y170.459 E39.08946
G1 X174.832 Y171.527 E39.17311
G1 X172.538 Y172.684 E39.25857
G1 X170.314 Y173.886 E39.34265
G1 X168.132 Y175.147 E39.42647
G1 X165.962 Y176.482 E39.51121
G1 X163.82 Y177.886 E39.59639
G1 X161.744 Y179.333 E39.68056
G1 X159.724 Y180.828 E39.76414
G1 X157.719 Y182.4 E39.84888
G1 X155.746 Y184.041 E39.93424
G1 X153.844 Y185.714 E40.01849
G1 X151.996 Y187.434 E40.10246
G1 X149.679 Y189.732 E40.21099
G1 X149.01 Y190.339 E40.24104
G1 X148.29 Y190.885 E40.27109
G1 X147.525 Y191.364 E40.30111
G1 X146.72 Y191.774 E40.33116
G1 X145.882 Y192.111 E40.3612
G1 X145.018 Y192.373 E40.39123
G1 F1500 E33.89123
G0 F6000 X208.153 Y153.153
G0 X208.153 Y116.847
G0 X191.847 Y116.847
G0 X191.847 Y139.347
G0 X187.9 Y138.365
G0 X187.9 Y137.9
G1 F1500 E40.39123
G1 F1200 X112.1 Y137.9 E42.91235
G1 X112.1 Y120.3 E43.49773
G1 X187.9 Y120.3 E46.01885
G1 X187.9 Y137.9 E46.60422
G0 F6000 X188.3 Y138.3
G1 F1200 X111.7 Y138.3 E49.15195
G1 X111.7 Y119.9 E49.76394
G1 X188.3 Y119.9 E52.31166
G1 X188.3 Y138.3 E52.92365
G0 F6000 X188.7 Y138.7
G1 F1200 X111.3 Y138.7 E55.49798
G1 X111.3 Y119.5 E56.13658
G1 X188.7 Y119.5 E58.71091
G1 X188.7 Y138.7 E59.34951
G0 F6000 X189.1 Y139.1
G1 F1200 X110.9 Y139.1 E61.95045
G1 X110.9 Y119.1 E62.61565
G1 X189.1 Y119.1 E65.2166
G1 X189.1 Y139.1 E65.8818
G0 F6000 X189.5 Y139.5
G1 F1200 X110.5 Y139.5 E68.50935
G1 X110.5 Y118.7 E69.20116
G1 X189.5 Y118.7 E71.82871
G1 X189.5 Y139.5 E72.52052
G0 F6000 X189.9 Y139.9
G1 F1200 X110.1 Y139.9 E75.17468
G1 X110.1 Y118.3 E75.8931
G1 X189.9 Y118.3 E78.54726
G1 X189.9 Y139.9 E79.26568
G0 F6000 X190.3 Y140.3
G1 F1200 X109.7 Y140.3 E81.94644
G1 X109.7 Y117.9 E82.69147
G1 X190.3 Y117.9 E85.37224
G1 X190.3 Y140.3 E86.11726
G0 F6000 X190.7 Y140.7
G1 F1200 X109.3 Y140.7 E88.82464
G1 X109.3 Y117.5 E89.59627
G1 X190.7 Y117.5 E92.30365
G1 X190.7 Y140.7 E93.07528
G0 F6000 X191.1 Y141.1
G1 F1200 X108.9 Y141.1 E95.80927
G1 X108.9 Y117.1 E96.60751
G1 X191.1 Y117.1 E99.34149
G1 X191.1 Y141.1 E100.13974
G0 F6000 X191.5 Y141.5
G1 F1200 X108.5 Y141.5 E102.90033
G1 X108.5 Y116.7 E103.72518
G1 X191.5 Y116.7 E106.48577
G1 X191.5 Y141.5 E107.31062
G1 F1500 E100.81062
G0 F6000 X188.365 Y137.5
G0 X187.5 Y137.5
;TYPE:SUPPORT
G1 F1500 E107.31062
G1 F1200 X112.5 Y137.5 E109.80513
G1 X112.5 Y120.7 E110.3639
G1 X187.5 Y120.7 E112.85841
G1 X187.5 Y137.5 E113.41718
G1 F1500 E106.91718
G0 F6000 X187.42 Y136
G1 F1500 E113.41718
G1 F1200 X112.58 Y136 E115.90637
G1 F1500 E109.40637
G0 F6000 X111.635 Y136
G0 X111.647 Y138.353
G0 X116 Y138.365
G0 X116 Y137.42
G1 F1500 E115.90637
G1 F1200 X116 Y120.78 E116.45982
G1 F1500 E109.95982
G0 F6000 X116 Y119.835
G0 X120 Y119.835
G0 X120 Y120.78
G1 F1500 E116.45982
G1 F1200 X120 Y137.42 E117.01327
G1 F1500 E110.51327
G0 F6000 X120 Y138.365
G0 X124 Y138.365
G0 X124 Y137.42
G1 F1500 E117.01327
G1 F1200 X124 Y120.78 E117.56672
G1 F1500 E111.06672
G0 F6000 X124 Y119.835
G0 X128 Y119.835
G0 X128 Y120.78
G1 F1500 E117.56672
G1 F1200 X128 Y137.42 E118.12017
G1 F1500 E111.62017
G0 F6000 X128 Y138.365
G0 X132 Y138.365
G0 X132 Y137.42
G1 F1500 E118.12017
G1 F1200 X132 Y120.78 E118.67361
G1 F1500 E112.17361
G0 F6000 X132 Y119.835
G0 X136 Y119.835
G0 X136 Y120.78
G1 F1500 E118.67361
G1 F1200 X136 Y137.42 E119.22706
G1 F1500 E112.72706
G0 F6000 X136 Y138.365
G0 X140 Y138.365
G0 X140 Y137.42
G1 F1500 E119.22706
G1 F1200 X140 Y120.78 E119.78051
G1 F1500 E113.28051
G0 F6000 X140 Y119.835
G0 X144 Y119.835
G0 X144 Y120.78
G1 F1500 E119.78051
G1 F1200 X144 Y137.42 E120.33396
G1 F1500 E113.83396
G0 F6000 X144 Y138.365
G0 X148 Y138.365
G0 X148 Y137.42
G1 F1500 E120.33396
G1 F1200 X148 Y120.78 E120.88741
G1 F1500 E114.38741
G0 F6000 X148 Y119.835
G0 X152 Y119.835
G0 X152 Y120.78
G1 F1500 E120.88741
G1 F1200 X152 Y137.42 E121.44086
G1 F1500 E114.94086
G0 F6000 X152 Y138.365
G0 X156 Y138.365
G0 X156 Y137.42
G1 F1500 E121.44086
G1 F1200 X156 Y120.78 E121.99431
G1 F1500 E115.49431
G0 F6000 X156 Y119.835
G0 X160 Y119.835
G0 X160 Y120.78
